%
(Header)
(Generated by gcodetools from Inkscape.)
(Using default header. To add your own header create file "header" in the output dir.)
M3
(Header end.)
G21 (All units in mm)

(Start cutting path id: path3009)
(Change tool to Default tool)

G00 Z5.000000
G00 X163.200072 Y7.901709

G01 Z-0.125000 F100.0(Penetrate)
G01 X161.882559 Y8.062241 Z-0.125000 F400.000000
G01 X160.625100 Y8.261660 Z-0.125000
G01 X159.429129 Y8.499216 Z-0.125000
G01 X158.296080 Y8.774163 Z-0.125000
G01 X157.227385 Y9.085754 Z-0.125000
G01 X156.224480 Y9.433239 Z-0.125000
G01 X155.288798 Y9.815872 Z-0.125000
G01 X154.421772 Y10.232905 Z-0.125000
G01 X153.624836 Y10.683591 Z-0.125000
G01 X152.899424 Y11.167181 Z-0.125000
G01 X152.246970 Y11.682929 Z-0.125000
G01 X151.668907 Y12.230086 Z-0.125000
G01 X151.166669 Y12.807904 Z-0.125000
G01 X150.741689 Y13.415637 Z-0.125000
G01 X150.395402 Y14.052537 Z-0.125000
G01 X150.129241 Y14.717855 Z-0.125000
G01 X149.949000 Y15.358473 Z-0.125000
G01 X149.826053 Y16.016879 Z-0.125000
G01 X149.759013 Y16.688774 Z-0.125000
G01 X149.746494 Y17.369857 Z-0.125000
G01 X149.787112 Y18.055830 Z-0.125000
G01 X149.879480 Y18.742394 Z-0.125000
G01 X150.022213 Y19.425248 Z-0.125000
G01 X150.213925 Y20.100094 Z-0.125000
G01 X150.453231 Y20.762631 Z-0.125000
G01 X150.738745 Y21.408561 Z-0.125000
G01 X151.069081 Y22.033584 Z-0.125000
G01 X151.442853 Y22.633401 Z-0.125000
G01 X151.858677 Y23.203712 Z-0.125000
G01 X152.315166 Y23.740218 Z-0.125000
G01 X152.810935 Y24.238619 Z-0.125000
G01 X153.344599 Y24.694617 Z-0.125000
G01 X153.985021 Y25.154718 Z-0.125000
G01 X154.728159 Y25.619139 Z-0.125000
G01 X156.352231 Y26.479981 Z-0.125000
G01 X157.147992 Y26.835922 Z-0.125000
G01 X157.876120 Y27.115225 Z-0.125000
G01 X158.494030 Y27.297649 Z-0.125000
G01 X158.959133 Y27.362954 Z-0.125000
G01 X159.029933 Y27.375915 Z-0.125000
G01 X159.046389 Y27.413060 Z-0.125000
G01 X158.929015 Y27.549486 Z-0.125000
G01 X158.632499 Y27.751396 Z-0.125000
G01 X158.182331 Y27.997954 Z-0.125000
G01 X157.390440 Y28.485901 Z-0.125000
G01 X157.048494 Y28.767941 Z-0.125000
G01 X156.742758 Y29.074739 Z-0.125000
G01 X156.473392 Y29.405833 Z-0.125000
G01 X156.240553 Y29.760758 Z-0.125000
G01 X156.044400 Y30.139049 Z-0.125000
G01 X155.885091 Y30.540243 Z-0.125000
G01 X155.677640 Y31.409484 Z-0.125000
G01 X155.619468 Y32.364768 Z-0.125000
G01 X155.711842 Y33.402382 Z-0.125000
G01 X155.956029 Y34.518614 Z-0.125000
G01 X156.091056 Y34.918701 Z-0.125000
G01 X156.272683 Y35.318675 Z-0.125000
G01 X156.766109 Y36.110353 Z-0.125000
G01 X157.417046 Y36.877777 Z-0.125000
G01 X158.206234 Y37.605076 Z-0.125000
G01 X159.114412 Y38.276381 Z-0.125000
G01 X160.122319 Y38.875822 Z-0.125000
G01 X161.210696 Y39.387526 Z-0.125000
G01 X162.360281 Y39.795625 Z-0.125000
G01 X163.566417 Y40.156311 Z-0.125000
G01 X162.078059 Y40.968484 Z-0.125000
G01 X161.321608 Y41.424067 Z-0.125000
G01 X160.583468 Y41.950912 Z-0.125000
G01 X159.877424 Y42.534986 Z-0.125000
G01 X159.217256 Y43.162254 Z-0.125000
G01 X158.616748 Y43.818681 Z-0.125000
G01 X158.089683 Y44.490234 Z-0.125000
G01 X157.649842 Y45.162877 Z-0.125000
G01 X157.311009 Y45.822577 Z-0.125000
G01 X157.018616 Y46.638299 Z-0.125000
G01 X156.792625 Y47.580170 Z-0.125000
G01 X156.634389 Y48.619845 Z-0.125000
G01 X156.545260 Y49.728982 Z-0.125000
G01 X156.526590 Y50.879237 Z-0.125000
G01 X156.579732 Y52.042267 Z-0.125000
G01 X156.706037 Y53.189729 Z-0.125000
G01 X156.906858 Y54.293279 Z-0.125000
G01 X157.243420 Y55.577790 Z-0.125000
G01 X157.669432 Y56.812716 Z-0.125000
G01 X158.182845 Y57.996202 Z-0.125000
G01 X158.781610 Y59.126391 Z-0.125000
G01 X159.463679 Y60.201429 Z-0.125000
G01 X160.227003 Y61.219459 Z-0.125000
G01 X161.069534 Y62.178625 Z-0.125000
G01 X161.989223 Y63.077072 Z-0.125000
G01 X162.984021 Y63.912944 Z-0.125000
G01 X164.051880 Y64.684384 Z-0.125000
G01 X165.190751 Y65.389538 Z-0.125000
G01 X166.398586 Y66.026549 Z-0.125000
G01 X167.673335 Y66.593562 Z-0.125000
G01 X169.012951 Y67.088720 Z-0.125000
G01 X170.415384 Y67.510168 Z-0.125000
G01 X171.878586 Y67.856050 Z-0.125000
G01 X173.089679 Y68.051929 Z-0.125000
G01 X174.514187 Y68.192876 Z-0.125000
G01 X176.091617 Y68.278780 Z-0.125000
G01 X177.761472 Y68.309529 Z-0.125000
G01 X179.463259 Y68.285011 Z-0.125000
G01 X181.136481 Y68.205115 Z-0.125000
G01 X182.720644 Y68.069729 Z-0.125000
G01 X184.155253 Y67.878741 Z-0.125000
G01 X185.048349 Y67.757020 Z-0.125000
G01 X186.147622 Y67.659077 Z-0.125000
G01 X189.357365 Y67.525159 Z-0.125000
G01 X194.569801 Y67.458262 Z-0.125000
G01 X202.570253 Y67.439659 Z-0.125000
G01 X211.271372 Y67.427157 Z-0.125000
G01 X215.985708 Y67.365913 Z-0.125000
G01 X217.226402 Y67.305095 Z-0.125000
G01 X217.924686 Y67.217787 Z-0.125000
G01 X218.231987 Y67.099224 Z-0.125000
G01 X218.286341 Y67.026731 Z-0.125000
G01 X218.299734 Y66.944636 Z-0.125000
G01 X218.176471 Y66.098409 Z-0.125000
G01 X217.886453 Y64.757409 Z-0.125000
G01 X217.566948 Y63.313585 Z-0.125000
G01 X217.526250 Y62.920009 Z-0.125000
G01 X217.578194 Y62.734274 Z-0.125000
G01 X217.642018 Y62.716756 Z-0.125000
G01 X217.732736 Y62.748090 Z-0.125000
G01 X217.999830 Y62.953169 Z-0.125000
G01 X218.911496 Y63.903962 Z-0.125000
G01 X219.985106 Y64.993107 Z-0.125000
G01 X221.068039 Y65.914079 Z-0.125000
G01 X222.177262 Y66.674555 Z-0.125000
G01 X223.329740 Y67.282213 Z-0.125000
G01 X224.542442 Y67.744729 Z-0.125000
G01 X225.832335 Y68.069780 Z-0.125000
G01 X227.216386 Y68.265045 Z-0.125000
G01 X228.711561 Y68.338199 Z-0.125000
G01 X230.569348 Y68.305787 Z-0.125000
G01 X231.904199 Y68.169417 Z-0.125000
G01 X232.373539 Y68.062596 Z-0.125000
G01 X232.709765 Y67.930202 Z-0.125000
G01 X232.912082 Y67.772376 Z-0.125000
G01 X232.979698 Y67.589257 Z-0.125000
G01 X232.695661 Y66.182768 Z-0.125000
G01 X232.044388 Y63.313456 Z-0.125000
G01 X231.327131 Y60.280570 Z-0.125000
G01 X230.845144 Y58.383354 Z-0.125000
G01 X230.784115 Y58.255622 Z-0.125000
G01 X230.672106 Y58.157039 Z-0.125000
G01 X230.489392 Y58.085488 Z-0.125000
G01 X230.216248 Y58.038851 Z-0.125000
G01 X229.319772 Y58.011849 Z-0.125000
G01 X227.824884 Y58.059089 Z-0.125000
G01 X226.280433 Y58.100417 Z-0.125000
G01 X225.173562 Y58.051309 Z-0.125000
G01 X224.274739 Y57.887383 Z-0.125000
G01 X223.354430 Y57.584258 Z-0.125000
G01 X222.139011 Y57.059480 Z-0.125000
G01 X221.016153 Y56.439877 Z-0.125000
G01 X219.988205 Y55.727704 Z-0.125000
G01 X219.057514 Y54.925220 Z-0.125000
G01 X218.226430 Y54.034681 Z-0.125000
G01 X217.497301 Y53.058345 Z-0.125000
G01 X216.872476 Y51.998467 Z-0.125000
G01 X216.354303 Y50.857306 Z-0.125000
G01 X216.049546 Y49.808581 Z-0.125000
G01 X215.650322 Y48.048923 Z-0.125000
G01 X215.208429 Y45.823735 Z-0.125000
G01 X214.775667 Y43.378417 Z-0.125000
G01 X213.620495 Y36.605741 Z-0.125000
G01 X213.461517 Y35.829630 Z-0.125000
G01 X215.866174 Y35.829630 Z-0.125000
G01 X217.602294 Y35.767453 Z-0.125000
G01 X218.159870 Y35.700149 Z-0.125000
G01 X218.399618 Y35.617963 Z-0.125000
G01 X218.414273 Y35.419957 Z-0.125000
G01 X218.379606 Y34.973125 Z-0.125000
G01 X218.175116 Y33.419650 Z-0.125000
G01 X217.315185 Y28.280185 Z-0.125000
G01 X217.149676 Y27.362963 Z-0.125000
G01 X206.720244 Y27.362963 Z-0.125000
G01 X196.290809 Y27.362963 Z-0.125000
G01 X196.292784 Y28.139074 Z-0.125000
G01 X196.458849 Y29.640585 Z-0.125000
G01 X196.855358 Y32.160741 Z-0.125000
G01 X197.417931 Y35.617963 Z-0.125000
G01 X197.596717 Y35.700149 Z-0.125000
G01 X198.082354 Y35.767453 Z-0.125000
G01 X199.677476 Y35.829630 Z-0.125000
G01 X201.272031 Y35.874936 Z-0.125000
G01 X201.757101 Y35.923977 Z-0.125000
G01 X201.935253 Y35.983864 Z-0.125000
G01 X203.784681 Y47.283636 Z-0.125000
G01 X205.751403 Y58.901296 Z-0.125000
G01 X205.897117 Y59.536296 Z-0.125000
G01 X199.697254 Y59.536296 Z-0.125000
G01 X193.497387 Y59.536296 Z-0.125000
G01 X193.940863 Y58.477963 Z-0.125000
G01 X194.132652 Y57.954841 Z-0.125000
G01 X194.289091 Y57.389149 Z-0.125000
G01 X194.497617 Y56.149546 Z-0.125000
G01 X194.569836 Y54.798142 Z-0.125000
G01 X194.509140 Y53.373924 Z-0.125000
G01 X194.318925 Y51.915878 Z-0.125000
G01 X194.002585 Y50.462992 Z-0.125000
G01 X193.563512 Y49.054252 Z-0.125000
G01 X193.005102 Y47.728646 Z-0.125000
G01 X192.572239 Y46.959324 Z-0.125000
G01 X192.000810 Y46.130250 Z-0.125000
G01 X191.319776 Y45.272303 Z-0.125000
G01 X190.558102 Y44.416358 Z-0.125000
G01 X189.744751 Y43.593290 Z-0.125000
G01 X188.908688 Y42.833977 Z-0.125000
G01 X188.078876 Y42.169294 Z-0.125000
G01 X187.284279 Y41.630118 Z-0.125000
G01 X185.917067 Y40.888958 Z-0.125000
G01 X184.408313 Y40.237475 Z-0.125000
G01 X182.770303 Y39.678488 Z-0.125000
G01 X181.015323 Y39.214815 Z-0.125000
G01 X179.155658 Y38.849274 Z-0.125000
G01 X177.203595 Y38.584684 Z-0.125000
G01 X175.171420 Y38.423863 Z-0.125000
G01 X173.071418 Y38.369630 Z-0.125000
G01 X171.980224 Y38.349900 Z-0.125000
G01 X171.062251 Y38.287656 Z-0.125000
G01 X170.304312 Y38.178312 Z-0.125000
G01 X169.693215 Y38.017284 Z-0.125000
G01 X169.215772 Y37.799989 Z-0.125000
G01 X168.858792 Y37.521843 Z-0.125000
G01 X168.609085 Y37.178260 Z-0.125000
G01 X168.453461 Y36.764657 Z-0.125000
G01 X168.393498 Y36.379620 Z-0.125000
G01 X168.439738 Y36.065331 Z-0.125000
G01 X168.605467 Y35.784489 Z-0.125000
G01 X168.903973 Y35.499791 Z-0.125000
G01 X169.478914 Y35.134782 Z-0.125000
G01 X169.750450 Y35.023744 Z-0.125000
G01 X169.964945 Y34.982963 Z-0.125000
G01 X171.242371 Y34.903757 Z-0.125000
G01 X173.372749 Y34.691198 Z-0.125000
G01 X179.018486 Y34.016357 Z-0.125000
G01 X184.554413 Y33.259124 Z-0.125000
G01 X186.547528 Y32.943574 Z-0.125000
G01 X187.632787 Y32.720181 Z-0.125000
G01 X188.503414 Y32.419409 Z-0.125000
G01 X189.287235 Y32.080217 Z-0.125000
G01 X189.989168 Y31.698828 Z-0.125000
G01 X190.614133 Y31.271466 Z-0.125000
G01 X191.167048 Y30.794352 Z-0.125000
G01 X191.652832 Y30.263709 Z-0.125000
G01 X192.076404 Y29.675761 Z-0.125000
G01 X192.442683 Y29.026731 Z-0.125000
G01 X192.687180 Y28.463536 Z-0.125000
G01 X192.885622 Y27.852515 Z-0.125000
G01 X193.038664 Y27.199649 Z-0.125000
G01 X193.146961 Y26.510921 Z-0.125000
G01 X193.211168 Y25.792312 Z-0.125000
G01 X193.231939 Y25.049804 Z-0.125000
G01 X193.145795 Y23.517019 Z-0.125000
G01 X192.893767 Y21.960421 Z-0.125000
G01 X192.481093 Y20.427864 Z-0.125000
G01 X192.216151 Y19.685556 Z-0.125000
G01 X191.913012 Y18.967204 Z-0.125000
G01 X191.572331 Y18.278790 Z-0.125000
G01 X191.194762 Y17.626296 Z-0.125000
G01 X190.618955 Y16.767741 Z-0.125000
G01 X189.986427 Y15.940675 Z-0.125000
G01 X189.299035 Y15.146250 Z-0.125000
G01 X188.558633 Y14.385621 Z-0.125000
G01 X187.767077 Y13.659941 Z-0.125000
G01 X186.926225 Y12.970364 Z-0.125000
G01 X186.037931 Y12.318044 Z-0.125000
G01 X185.104051 Y11.704134 Z-0.125000
G01 X184.126441 Y11.129789 Z-0.125000
G01 X183.106958 Y10.596161 Z-0.125000
G01 X182.047456 Y10.104404 Z-0.125000
G01 X180.949793 Y9.655673 Z-0.125000
G01 X179.815823 Y9.251121 Z-0.125000
G01 X178.647403 Y8.891902 Z-0.125000
G01 X177.446388 Y8.579168 Z-0.125000
G01 X176.214635 Y8.314075 Z-0.125000
G01 X174.974387 Y8.123378 Z-0.125000
G01 X173.452569 Y7.967017 Z-0.125000
G01 X171.734741 Y7.847703 Z-0.125000
G01 X169.906464 Y7.768147 Z-0.125000
G01 X168.053298 Y7.731059 Z-0.125000
G01 X166.260804 Y7.739151 Z-0.125000
G01 X164.614542 Y7.795133 Z-0.125000
G01 X163.200072 Y7.901717 Z-0.125000
G01 X163.200072 Y7.901709 Z-0.125000
G00 Z5.000000

(End cutting path id: path3009)


(Start cutting path id: path3009)
(Change tool to Default tool)

G00 Z5.000000
G00 X165.959901 Y15.810594

G01 Z-0.125000 F100.0(Penetrate)
G01 X164.752149 Y16.060133 Z-0.125000 F400.000000
G01 X163.698495 Y16.379756 Z-0.125000
G01 X162.797355 Y16.770636 Z-0.125000
G01 X162.047142 Y17.233947 Z-0.125000
G01 X161.446271 Y17.770864 Z-0.125000
G01 X160.993157 Y18.382559 Z-0.125000
G01 X160.686215 Y19.070207 Z-0.125000
G01 X160.523858 Y19.834981 Z-0.125000
G01 X160.509528 Y20.636718 Z-0.125000
G01 X160.650794 Y21.404621 Z-0.125000
G01 X160.947278 Y22.138202 Z-0.125000
G01 X161.398599 Y22.836974 Z-0.125000
G01 X162.004380 Y23.500446 Z-0.125000
G01 X162.764240 Y24.128130 Z-0.125000
G01 X163.677800 Y24.719538 Z-0.125000
G01 X164.744680 Y25.274180 Z-0.125000
G01 X165.105338 Y25.429197 Z-0.125000
G01 X165.484768 Y25.535791 Z-0.125000
G01 X165.969685 Y25.591022 Z-0.125000
G01 X166.646805 Y25.591947 Z-0.125000
G01 X168.924522 Y25.419116 Z-0.125000
G01 X173.011647 Y24.993767 Z-0.125000
G01 X178.355190 Y24.361778 Z-0.125000
G01 X180.172897 Y24.102530 Z-0.125000
G01 X181.068730 Y23.927751 Z-0.125000
G01 X181.420222 Y23.780917 Z-0.125000
G01 X181.714931 Y23.602550 Z-0.125000
G01 X181.955914 Y23.387503 Z-0.125000
G01 X182.146228 Y23.130630 Z-0.125000
G01 X182.288928 Y22.826783 Z-0.125000
G01 X182.387072 Y22.470817 Z-0.125000
G01 X182.443717 Y22.057584 Z-0.125000
G01 X182.461920 Y21.581937 Z-0.125000
G01 X182.431729 Y21.093146 Z-0.125000
G01 X182.341779 Y20.619199 Z-0.125000
G01 X182.193004 Y20.160835 Z-0.125000
G01 X181.986339 Y19.718790 Z-0.125000
G01 X181.722719 Y19.293801 Z-0.125000
G01 X181.403076 Y18.886606 Z-0.125000
G01 X181.028347 Y18.497942 Z-0.125000
G01 X180.599465 Y18.128546 Z-0.125000
G01 X180.117364 Y17.779155 Z-0.125000
G01 X179.582979 Y17.450508 Z-0.125000
G01 X178.361094 Y16.858389 Z-0.125000
G01 X176.941286 Y16.358087 Z-0.125000
G01 X175.331028 Y15.955501 Z-0.125000
G01 X174.368854 Y15.796958 Z-0.125000
G01 X173.237281 Y15.676843 Z-0.125000
G01 X171.991122 Y15.596003 Z-0.125000
G01 X170.685186 Y15.555286 Z-0.125000
G01 X169.374285 Y15.555539 Z-0.125000
G01 X168.113230 Y15.597610 Z-0.125000
G01 X166.956831 Y15.682345 Z-0.125000
G01 X165.959901 Y15.810594 Z-0.125000
G01 X165.959901 Y15.810594 Z-0.125000
G00 Z5.000000

(End cutting path id: path3009)


(Start cutting path id: path3009)
(Change tool to Default tool)

G00 Z5.000000
G00 X175.970809 Y16.792801

G01 Z-0.125000 F100.0(Penetrate)
G01 X177.471193 Y17.324163 Z-0.125000 F400.000000
G01 X178.778918 Y17.937448 Z-0.125000
G01 X179.877630 Y18.616463 Z-0.125000
G01 X180.343495 Y18.975557 Z-0.125000
G01 X180.750974 Y19.345010 Z-0.125000
G01 X181.098024 Y19.722798 Z-0.125000
G01 X181.382599 Y20.106895 Z-0.125000
G01 X181.602656 Y20.495278 Z-0.125000
G01 X181.756150 Y20.885922 Z-0.125000
G01 X181.841038 Y21.276803 Z-0.125000
G01 X181.855274 Y21.665896 Z-0.125000
G01 X181.796816 Y22.051177 Z-0.125000
G01 X181.663618 Y22.430622 Z-0.125000
G01 X181.467112 Y22.747544 Z-0.125000
G01 X181.146895 Y23.012879 Z-0.125000
G01 X180.631401 Y23.242131 Z-0.125000
G01 X179.849060 Y23.450804 Z-0.125000
G01 X178.728306 Y23.654401 Z-0.125000
G01 X177.197570 Y23.868427 Z-0.125000
G01 X172.619883 Y24.389780 Z-0.125000
G01 X166.052182 Y25.093987 Z-0.125000
G01 X164.732051 Y24.423491 Z-0.125000
G01 X163.788516 Y23.891069 Z-0.125000
G01 X162.992477 Y23.331994 Z-0.125000
G01 X162.342488 Y22.752782 Z-0.125000
G01 X161.837099 Y22.159951 Z-0.125000
G01 X161.474864 Y21.560018 Z-0.125000
G01 X161.254334 Y20.959499 Z-0.125000
G01 X161.174063 Y20.364910 Z-0.125000
G01 X161.232601 Y19.782769 Z-0.125000
G01 X161.428502 Y19.219593 Z-0.125000
G01 X161.760317 Y18.681897 Z-0.125000
G01 X162.226600 Y18.176199 Z-0.125000
G01 X162.825902 Y17.709016 Z-0.125000
G01 X163.556775 Y17.286864 Z-0.125000
G01 X164.417772 Y16.916260 Z-0.125000
G01 X165.407444 Y16.603721 Z-0.125000
G01 X166.524345 Y16.355763 Z-0.125000
G01 X167.450255 Y16.244200 Z-0.125000
G01 X168.618186 Y16.187948 Z-0.125000
G01 X169.943541 Y16.183094 Z-0.125000
G01 X171.341724 Y16.225724 Z-0.125000
G01 X172.728139 Y16.311923 Z-0.125000
G01 X174.018189 Y16.437779 Z-0.125000
G01 X175.127278 Y16.599376 Z-0.125000
G01 X175.970809 Y16.792801 Z-0.125000
G01 X175.970809 Y16.792801 Z-0.125000
G00 Z5.000000

(End cutting path id: path3009)


(Start cutting path id: path3009)
(Change tool to Default tool)

G00 Z5.000000
G00 X175.650190 Y8.884302

G01 Z-0.125000 F100.0(Penetrate)
G01 X177.485148 Y9.296231 Z-0.125000 F400.000000
G01 X179.244279 Y9.814346 Z-0.125000
G01 X180.921713 Y10.433044 Z-0.125000
G01 X182.511576 Y11.146722 Z-0.125000
G01 X184.007997 Y11.949774 Z-0.125000
G01 X185.405103 Y12.836599 Z-0.125000
G01 X186.697022 Y13.801591 Z-0.125000
G01 X187.877880 Y14.839149 Z-0.125000
G01 X188.941807 Y15.943667 Z-0.125000
G01 X189.882930 Y17.109542 Z-0.125000
G01 X190.695375 Y18.331171 Z-0.125000
G01 X191.373272 Y19.602950 Z-0.125000
G01 X191.910747 Y20.919275 Z-0.125000
G01 X192.301928 Y22.274543 Z-0.125000
G01 X192.540943 Y23.663149 Z-0.125000
G01 X192.621920 Y25.079492 Z-0.125000
G01 X192.577233 Y25.964717 Z-0.125000
G01 X192.445275 Y26.814241 Z-0.125000
G01 X192.229195 Y27.621222 Z-0.125000
G01 X191.932144 Y28.378818 Z-0.125000
G01 X191.557276 Y29.080185 Z-0.125000
G01 X191.107739 Y29.718483 Z-0.125000
G01 X190.586686 Y30.286869 Z-0.125000
G01 X189.997267 Y30.778501 Z-0.125000
G01 X189.256266 Y31.255108 Z-0.125000
G01 X188.408100 Y31.665493 Z-0.125000
G01 X187.382948 Y32.024971 Z-0.125000
G01 X186.110984 Y32.348861 Z-0.125000
G01 X184.522388 Y32.652478 Z-0.125000
G01 X182.547334 Y32.951141 Z-0.125000
G01 X177.158564 Y33.594867 Z-0.125000
G01 X173.686327 Y33.994690 Z-0.125000
G01 X171.017516 Y34.349744 Z-0.125000
G01 X169.234929 Y34.647879 Z-0.125000
G01 X168.701844 Y34.771806 Z-0.125000
G01 X168.421364 Y34.876946 Z-0.125000
G01 X168.130174 Y35.114100 Z-0.125000
G01 X167.933223 Y35.406996 Z-0.125000
G01 X167.821592 Y35.774724 Z-0.125000
G01 X167.786364 Y36.236380 Z-0.125000
G01 X167.830750 Y36.986155 Z-0.125000
G01 X167.980691 Y37.589277 Z-0.125000
G01 X168.103114 Y37.840341 Z-0.125000
G01 X168.261367 Y38.060136 Z-0.125000
G01 X168.458598 Y38.250463 Z-0.125000
G01 X168.697954 Y38.413120 Z-0.125000
G01 X169.315630 Y38.662616 Z-0.125000
G01 X170.139574 Y38.823014 Z-0.125000
G01 X171.194963 Y38.908701 Z-0.125000
G01 X172.506974 Y38.934066 Z-0.125000
G01 X174.606976 Y38.988299 Z-0.125000
G01 X176.639151 Y39.149120 Z-0.125000
G01 X178.591214 Y39.413710 Z-0.125000
G01 X180.450878 Y39.779251 Z-0.125000
G01 X182.205859 Y40.242924 Z-0.125000
G01 X183.843869 Y40.801911 Z-0.125000
G01 X185.352623 Y41.453394 Z-0.125000
G01 X186.719835 Y42.194554 Z-0.125000
G01 X187.514432 Y42.733730 Z-0.125000
G01 X188.344244 Y43.398413 Z-0.125000
G01 X189.180307 Y44.157726 Z-0.125000
G01 X189.993657 Y44.980794 Z-0.125000
G01 X190.755331 Y45.836739 Z-0.125000
G01 X191.436365 Y46.694686 Z-0.125000
G01 X192.007795 Y47.523759 Z-0.125000
G01 X192.440657 Y48.293082 Z-0.125000
G01 X193.014916 Y49.620928 Z-0.125000
G01 X193.454012 Y50.952632 Z-0.125000
G01 X193.756983 Y52.275438 Z-0.125000
G01 X193.922868 Y53.576591 Z-0.125000
G01 X193.950703 Y54.843337 Z-0.125000
G01 X193.839526 Y56.062920 Z-0.125000
G01 X193.588376 Y57.222585 Z-0.125000
G01 X193.196290 Y58.309578 Z-0.125000
G01 X192.790642 Y59.298981 Z-0.125000
G01 X192.621920 Y59.854386 Z-0.125000
G01 X192.763045 Y59.903872 Z-0.125000
G01 X193.167513 Y59.950037 Z-0.125000
G01 X194.653038 Y60.028368 Z-0.125000
G01 X199.536364 Y60.100732 Z-0.125000
G01 X203.166652 Y60.086218 Z-0.125000
G01 X205.260169 Y60.025733 Z-0.125000
G01 X205.856726 Y59.970308 Z-0.125000
G01 X206.220396 Y59.893859 Z-0.125000
G01 X206.401611 Y59.793209 Z-0.125000
G01 X206.450809 Y59.665182 Z-0.125000
G01 X205.870489 Y55.882836 Z-0.125000
G01 X204.475253 Y47.400732 Z-0.125000
G01 X202.499698 Y35.418505 Z-0.125000
G01 X202.321545 Y35.358971 Z-0.125000
G01 X201.836476 Y35.310217 Z-0.125000
G01 X200.241920 Y35.265177 Z-0.125000
G01 X198.646815 Y35.203000 Z-0.125000
G01 X198.161151 Y35.135696 Z-0.125000
G01 X197.982271 Y35.053510 Z-0.125000
G01 X197.419698 Y31.596288 Z-0.125000
G01 X196.857124 Y28.139066 Z-0.125000
G01 X197.705309 Y28.072451 Z-0.125000
G01 X199.942527 Y28.013217 Z-0.125000
G01 X206.732432 Y27.930114 Z-0.125000
G01 X213.523572 Y27.916209 Z-0.125000
G01 X215.762334 Y27.943472 Z-0.125000
G01 X216.612680 Y27.997954 Z-0.125000
G01 X217.175253 Y31.314066 Z-0.125000
G01 X217.571799 Y33.709868 Z-0.125000
G01 X217.737827 Y34.912399 Z-0.125000
G01 X217.706272 Y35.000684 Z-0.125000
G01 X217.607445 Y35.074972 Z-0.125000
G01 X217.189332 Y35.184300 Z-0.125000
G01 X216.446213 Y35.245872 Z-0.125000
G01 X215.340809 Y35.265177 Z-0.125000
G01 X214.021309 Y35.279800 Z-0.125000
G01 X213.301654 Y35.352947 Z-0.125000
G01 X213.110522 Y35.425190 Z-0.125000
G01 X213.001855 Y35.528532 Z-0.125000
G01 X212.953154 Y35.668463 Z-0.125000
G01 X212.941920 Y35.850472 Z-0.125000
G01 X213.043084 Y36.898858 Z-0.125000
G01 X213.314188 Y38.735067 Z-0.125000
G01 X214.171894 Y43.708315 Z-0.125000
G01 X215.126392 Y48.644938 Z-0.125000
G01 X215.518485 Y50.435365 Z-0.125000
G01 X215.789034 Y51.419656 Z-0.125000
G01 X216.307624 Y52.561797 Z-0.125000
G01 X216.932835 Y53.622464 Z-0.125000
G01 X217.662290 Y54.599370 Z-0.125000
G01 X218.493610 Y55.490231 Z-0.125000
G01 X219.424418 Y56.292761 Z-0.125000
G01 X220.452336 Y57.004675 Z-0.125000
G01 X221.574984 Y57.623687 Z-0.125000
G01 X222.789986 Y58.147512 Z-0.125000
G01 X223.689374 Y58.433737 Z-0.125000
G01 X224.666457 Y58.624853 Z-0.125000
G01 X225.837560 Y58.737297 Z-0.125000
G01 X227.319003 Y58.787507 Z-0.125000
G01 X230.266086 Y58.830732 Z-0.125000
G01 X231.291470 Y63.114572 Z-0.125000
G01 X231.953067 Y65.934081 Z-0.125000
G01 X232.057921 Y66.757919 Z-0.125000
G01 X232.038838 Y67.052879 Z-0.125000
G01 X231.966358 Y67.281112 Z-0.125000
G01 X231.836189 Y67.451051 Z-0.125000
G01 X231.644038 Y67.571131 Z-0.125000
G01 X231.385612 Y67.649786 Z-0.125000
G01 X231.056619 Y67.695451 Z-0.125000
G01 X230.169763 Y67.721544 Z-0.125000
G01 X228.949127 Y67.716884 Z-0.125000
G01 X228.048201 Y67.688315 Z-0.125000
G01 X227.166499 Y67.599855 Z-0.125000
G01 X226.305072 Y67.452169 Z-0.125000
G01 X225.464973 Y67.245920 Z-0.125000
G01 X224.647255 Y66.981774 Z-0.125000
G01 X223.852970 Y66.660395 Z-0.125000
G01 X223.083171 Y66.282448 Z-0.125000
G01 X222.338909 Y65.848596 Z-0.125000
G01 X221.621238 Y65.359504 Z-0.125000
G01 X220.931210 Y64.815837 Z-0.125000
G01 X220.269877 Y64.218259 Z-0.125000
G01 X219.638292 Y63.567435 Z-0.125000
G01 X219.037507 Y62.864028 Z-0.125000
G01 X218.468575 Y62.108704 Z-0.125000
G01 X217.932548 Y61.302127 Z-0.125000
G01 X217.430478 Y60.444962 Z-0.125000
G01 X217.029589 Y59.765732 Z-0.125000
G01 X216.648298 Y59.208999 Z-0.125000
G01 X216.329709 Y58.832249 Z-0.125000
G01 X216.116920 Y58.692971 Z-0.125000
G01 X215.967699 Y58.711968 Z-0.125000
G01 X215.863281 Y58.779415 Z-0.125000
G01 X215.804100 Y58.906112 Z-0.125000
G01 X215.790591 Y59.102857 Z-0.125000
G01 X215.902327 Y59.749685 Z-0.125000
G01 X216.201965 Y60.806288 Z-0.125000
G01 X216.660306 Y62.486833 Z-0.125000
G01 X217.156040 Y64.545734 Z-0.125000
G01 X217.678405 Y66.874072 Z-0.125000
G01 X202.008840 Y66.874072 Z-0.125000
G01 X193.942806 Y66.891890 Z-0.125000
G01 X188.743946 Y66.959537 Z-0.125000
G01 X185.546167 Y67.098306 Z-0.125000
G01 X184.427029 Y67.201015 Z-0.125000
G01 X183.483375 Y67.329488 Z-0.125000
G01 X182.047478 Y67.505911 Z-0.125000
G01 X180.421397 Y67.617115 Z-0.125000
G01 X178.683006 Y67.665022 Z-0.125000
G01 X176.910176 Y67.651553 Z-0.125000
G01 X175.180779 Y67.578628 Z-0.125000
G01 X173.572690 Y67.448169 Z-0.125000
G01 X172.163779 Y67.262097 Z-0.125000
G01 X171.031920 Y67.022332 Z-0.125000
G01 X170.165376 Y66.740745 Z-0.125000
G01 X169.057741 Y66.318215 Z-0.125000
G01 X167.851513 Y65.811939 Z-0.125000
G01 X166.689186 Y65.279116 Z-0.125000
G01 X165.804242 Y64.823032 Z-0.125000
G01 X164.956732 Y64.326757 Z-0.125000
G01 X164.147455 Y63.791291 Z-0.125000
G01 X163.377209 Y63.217634 Z-0.125000
G01 X162.646791 Y62.606787 Z-0.125000
G01 X161.957001 Y61.959752 Z-0.125000
G01 X161.308635 Y61.277528 Z-0.125000
G01 X160.702492 Y60.561115 Z-0.125000
G01 X160.139370 Y59.811516 Z-0.125000
G01 X159.620067 Y59.029729 Z-0.125000
G01 X159.145381 Y58.216757 Z-0.125000
G01 X158.716111 Y57.373598 Z-0.125000
G01 X158.333053 Y56.501255 Z-0.125000
G01 X157.997007 Y55.600727 Z-0.125000
G01 X157.708770 Y54.673016 Z-0.125000
G01 X157.469141 Y53.719121 Z-0.125000
G01 X157.280739 Y52.715257 Z-0.125000
G01 X157.162590 Y51.719485 Z-0.125000
G01 X157.114245 Y50.739389 Z-0.125000
G01 X157.135259 Y49.782550 Z-0.125000
G01 X157.225184 Y48.856554 Z-0.125000
G01 X157.383574 Y47.968982 Z-0.125000
G01 X157.609982 Y47.127419 Z-0.125000
G01 X157.903961 Y46.339447 Z-0.125000
G01 X158.282379 Y45.617539 Z-0.125000
G01 X158.794623 Y44.873093 Z-0.125000
G01 X159.417254 Y44.128274 Z-0.125000
G01 X160.126834 Y43.405247 Z-0.125000
G01 X160.899924 Y42.726178 Z-0.125000
G01 X161.713085 Y42.113230 Z-0.125000
G01 X162.542877 Y41.588570 Z-0.125000
G01 X163.365864 Y41.174363 Z-0.125000
G01 X163.983085 Y40.880940 Z-0.125000
G01 X164.489259 Y40.590664 Z-0.125000
G01 X164.832101 Y40.337031 Z-0.125000
G01 X164.959324 Y40.153537 Z-0.125000
G01 X164.834053 Y39.987388 Z-0.125000
G01 X164.489536 Y39.780982 Z-0.125000
G01 X163.978436 Y39.560603 Z-0.125000
G01 X163.353418 Y39.352533 Z-0.125000
G01 X162.530247 Y39.090699 Z-0.125000
G01 X161.752325 Y38.797483 Z-0.125000
G01 X161.020733 Y38.473997 Z-0.125000
G01 X160.336550 Y38.121353 Z-0.125000
G01 X159.700859 Y37.740661 Z-0.125000
G01 X159.114741 Y37.333031 Z-0.125000
G01 X158.579276 Y36.899576 Z-0.125000
G01 X158.095546 Y36.441406 Z-0.125000
G01 X157.664632 Y35.959631 Z-0.125000
G01 X157.287614 Y35.455364 Z-0.125000
G01 X156.965574 Y34.929715 Z-0.125000
G01 X156.699593 Y34.383794 Z-0.125000
G01 X156.490753 Y33.818714 Z-0.125000
G01 X156.340133 Y33.235584 Z-0.125000
G01 X156.248815 Y32.635516 Z-0.125000
G01 X156.217881 Y32.019621 Z-0.125000
G01 X156.295875 Y31.384289 Z-0.125000
G01 X156.519189 Y30.752146 Z-0.125000
G01 X156.870546 Y30.141572 Z-0.125000
G01 X157.332669 Y29.570947 Z-0.125000
G01 X157.888282 Y29.058649 Z-0.125000
G01 X158.520110 Y28.623058 Z-0.125000
G01 X159.210875 Y28.282554 Z-0.125000
G01 X159.943301 Y28.055517 Z-0.125000
G01 X160.321860 Y27.942705 Z-0.125000
G01 X160.569444 Y27.804363 Z-0.125000
G01 X160.688797 Y27.647439 Z-0.125000
G01 X160.682663 Y27.478882 Z-0.125000
G01 X160.553788 Y27.305638 Z-0.125000
G01 X160.304916 Y27.134659 Z-0.125000
G01 X159.938791 Y26.972890 Z-0.125000
G01 X159.458159 Y26.827283 Z-0.125000
G01 X158.092595 Y26.419817 Z-0.125000
G01 X156.810177 Y25.909260 Z-0.125000
G01 X155.621261 Y25.303017 Z-0.125000
G01 X154.536203 Y24.608491 Z-0.125000
G01 X153.565360 Y23.833087 Z-0.125000
G01 X152.719087 Y22.984209 Z-0.125000
G01 X152.007741 Y22.069262 Z-0.125000
G01 X151.441679 Y21.095651 Z-0.125000
G01 X151.056245 Y20.250306 Z-0.125000
G01 X150.756900 Y19.459078 Z-0.125000
G01 X150.542335 Y18.711770 Z-0.125000
G01 X150.411243 Y17.998181 Z-0.125000
G01 X150.362316 Y17.308111 Z-0.125000
G01 X150.394244 Y16.631361 Z-0.125000
G01 X150.505721 Y15.957731 Z-0.125000
G01 X150.695438 Y15.277022 Z-0.125000
G01 X151.051033 Y14.428587 Z-0.125000
G01 X151.535812 Y13.628848 Z-0.125000
G01 X152.145979 Y12.879189 Z-0.125000
G01 X152.877739 Y12.180997 Z-0.125000
G01 X153.727299 Y11.535654 Z-0.125000
G01 X154.690863 Y10.944545 Z-0.125000
G01 X155.764637 Y10.409055 Z-0.125000
G01 X156.944826 Y9.930568 Z-0.125000
G01 X158.227635 Y9.510469 Z-0.125000
G01 X159.609271 Y9.150141 Z-0.125000
G01 X161.085937 Y8.850970 Z-0.125000
G01 X162.653839 Y8.614340 Z-0.125000
G01 X164.309184 Y8.441635 Z-0.125000
G01 X166.048175 Y8.334240 Z-0.125000
G01 X167.867019 Y8.293539 Z-0.125000
G01 X169.761920 Y8.320916 Z-0.125000
G01 X171.317947 Y8.400332 Z-0.125000
G01 X172.946808 Y8.533026 Z-0.125000
G01 X174.455292 Y8.700511 Z-0.125000
G01 X175.650190 Y8.884302 Z-0.125000
G01 X175.650190 Y8.884302 Z-0.125000
G00 Z5.000000

(End cutting path id: path3009)


(Start cutting path id: path3009)
(Change tool to Default tool)

G00 Z5.000000
G00 X171.878586 Y46.444589

G01 Z-0.125000 F100.0(Penetrate)
G01 X171.113019 Y46.664741 Z-0.125000 F400.000000
G01 X170.411211 Y46.926199 Z-0.125000
G01 X169.773351 Y47.228618 Z-0.125000
G01 X169.199629 Y47.571647 Z-0.125000
G01 X168.690233 Y47.954940 Z-0.125000
G01 X168.245352 Y48.378148 Z-0.125000
G01 X167.865173 Y48.840923 Z-0.125000
G01 X167.549887 Y49.342918 Z-0.125000
G01 X167.299682 Y49.883785 Z-0.125000
G01 X167.114746 Y50.463174 Z-0.125000
G01 X166.995269 Y51.080740 Z-0.125000
G01 X166.941438 Y51.736132 Z-0.125000
G01 X166.953442 Y52.429005 Z-0.125000
G01 X167.031471 Y53.159009 Z-0.125000
G01 X167.175713 Y53.925796 Z-0.125000
G01 X167.386357 Y54.729019 Z-0.125000
G01 X167.683982 Y55.500231 Z-0.125000
G01 X168.109114 Y56.264495 Z-0.125000
G01 X168.645444 Y57.005438 Z-0.125000
G01 X169.276666 Y57.706687 Z-0.125000
G01 X169.986470 Y58.351867 Z-0.125000
G01 X170.758549 Y58.924606 Z-0.125000
G01 X171.576595 Y59.408529 Z-0.125000
G01 X172.424300 Y59.787263 Z-0.125000
G01 X173.346786 Y60.093455 Z-0.125000
G01 X174.284367 Y60.330328 Z-0.125000
G01 X175.229436 Y60.499452 Z-0.125000
G01 X176.174386 Y60.602396 Z-0.125000
G01 X177.111611 Y60.640730 Z-0.125000
G01 X178.033505 Y60.616023 Z-0.125000
G01 X178.932460 Y60.529845 Z-0.125000
G01 X179.800871 Y60.383765 Z-0.125000
G01 X180.631131 Y60.179353 Z-0.125000
G01 X181.415633 Y59.918178 Z-0.125000
G01 X182.146771 Y59.601809 Z-0.125000
G01 X182.816939 Y59.231817 Z-0.125000
G01 X183.418530 Y58.809770 Z-0.125000
G01 X183.943937 Y58.337238 Z-0.125000
G01 X184.385555 Y57.815791 Z-0.125000
G01 X184.735776 Y57.246997 Z-0.125000
G01 X184.978538 Y56.636473 Z-0.125000
G01 X185.144480 Y55.927364 Z-0.125000
G01 X185.234387 Y55.148390 Z-0.125000
G01 X185.249042 Y54.328270 Z-0.125000
G01 X185.189232 Y53.495724 Z-0.125000
G01 X185.055739 Y52.679473 Z-0.125000
G01 X184.849350 Y51.908236 Z-0.125000
G01 X184.570848 Y51.210732 Z-0.125000
G01 X184.268837 Y50.637757 Z-0.125000
G01 X183.933971 Y50.102716 Z-0.125000
G01 X183.565554 Y49.605246 Z-0.125000
G01 X183.162891 Y49.144979 Z-0.125000
G01 X182.725285 Y48.721549 Z-0.125000
G01 X182.252040 Y48.334590 Z-0.125000
G01 X181.742461 Y47.983737 Z-0.125000
G01 X181.195851 Y47.668623 Z-0.125000
G01 X180.611515 Y47.388882 Z-0.125000
G01 X179.988757 Y47.144148 Z-0.125000
G01 X179.326880 Y46.934055 Z-0.125000
G01 X178.625189 Y46.758237 Z-0.125000
G01 X177.099581 Y46.507962 Z-0.125000
G01 X175.406364 Y46.390394 Z-0.125000
G01 X173.147705 Y46.370453 Z-0.125000
G01 X172.331575 Y46.396651 Z-0.125000
G01 X171.878586 Y46.444589 Z-0.125000
G01 X171.878586 Y46.444589 Z-0.125000
G00 Z5.000000

(End cutting path id: path3009)


(Start cutting path id: path3009)
(Change tool to Default tool)

G00 Z5.000000
G00 X179.484552 Y47.701943

G01 Z-0.125000 F100.0(Penetrate)
G01 X180.208763 Y48.013784 Z-0.125000 F400.000000
G01 X180.889643 Y48.387853 Z-0.125000
G01 X181.524035 Y48.817993 Z-0.125000
G01 X182.108781 Y49.298048 Z-0.125000
G01 X182.640724 Y49.821859 Z-0.125000
G01 X183.116707 Y50.383270 Z-0.125000
G01 X183.533573 Y50.976123 Z-0.125000
G01 X183.888163 Y51.594262 Z-0.125000
G01 X184.177322 Y52.231529 Z-0.125000
G01 X184.397892 Y52.881767 Z-0.125000
G01 X184.546715 Y53.538819 Z-0.125000
G01 X184.620634 Y54.196527 Z-0.125000
G01 X184.616492 Y54.848735 Z-0.125000
G01 X184.531131 Y55.489285 Z-0.125000
G01 X184.361395 Y56.112020 Z-0.125000
G01 X184.104126 Y56.710784 Z-0.125000
G01 X183.648086 Y57.425552 Z-0.125000
G01 X183.071861 Y58.054357 Z-0.125000
G01 X182.389220 Y58.596486 Z-0.125000
G01 X181.613934 Y59.051229 Z-0.125000
G01 X180.759773 Y59.417877 Z-0.125000
G01 X179.840508 Y59.695719 Z-0.125000
G01 X178.869910 Y59.884043 Z-0.125000
G01 X177.861749 Y59.982140 Z-0.125000
G01 X176.829795 Y59.989300 Z-0.125000
G01 X175.787819 Y59.904811 Z-0.125000
G01 X174.749591 Y59.727963 Z-0.125000
G01 X173.728882 Y59.458046 Z-0.125000
G01 X172.739462 Y59.094350 Z-0.125000
G01 X171.795102 Y58.636163 Z-0.125000
G01 X170.909573 Y58.082776 Z-0.125000
G01 X170.096644 Y57.433478 Z-0.125000
G01 X169.339401 Y56.645142 Z-0.125000
G01 X168.710494 Y55.775779 Z-0.125000
G01 X168.216593 Y54.848608 Z-0.125000
G01 X167.864373 Y53.886845 Z-0.125000
G01 X167.660504 Y52.913705 Z-0.125000
G01 X167.611660 Y51.952407 Z-0.125000
G01 X167.647458 Y51.483453 Z-0.125000
G01 X167.724513 Y51.026166 Z-0.125000
G01 X167.843661 Y50.583447 Z-0.125000
G01 X168.005736 Y50.158199 Z-0.125000
G01 X168.274986 Y49.625944 Z-0.125000
G01 X168.588766 Y49.152492 Z-0.125000
G01 X168.953719 Y48.732742 Z-0.125000
G01 X169.376488 Y48.361594 Z-0.125000
G01 X169.863715 Y48.033945 Z-0.125000
G01 X170.422045 Y47.744694 Z-0.125000
G01 X171.058119 Y47.488741 Z-0.125000
G01 X171.778581 Y47.260984 Z-0.125000
G01 X172.604139 Y47.082281 Z-0.125000
G01 X173.534572 Y46.974134 Z-0.125000
G01 X174.537113 Y46.934670 Z-0.125000
G01 X175.578993 Y46.962011 Z-0.125000
G01 X176.627444 Y47.054284 Z-0.125000
G01 X177.649700 Y47.209614 Z-0.125000
G01 X178.612992 Y47.426125 Z-0.125000
G01 X179.484552 Y47.701943 Z-0.125000
G01 X179.484552 Y47.701943 Z-0.125000
G00 Z5.000000

(End cutting path id: path3009)


(Start cutting path id: path3009)
(Change tool to Default tool)

G00 Z5.000000
G00 X143.035853 Y53.539066

G01 Z-0.125000 F100.0(Penetrate)
G01 X143.092812 Y54.064793 Z-0.125000 F400.000000
G01 X143.078815 Y54.652912 Z-0.125000
G01 X143.000153 Y55.278971 Z-0.125000
G01 X142.863115 Y55.918514 Z-0.125000
G01 X142.673990 Y56.547090 Z-0.125000
G01 X142.439068 Y57.140244 Z-0.125000
G01 X142.164639 Y57.673522 Z-0.125000
G01 X141.856991 Y58.122470 Z-0.125000
G01 X141.344894 Y58.714036 Z-0.125000
G01 X140.845496 Y59.189049 Z-0.125000
G01 X140.329225 Y59.559123 Z-0.125000
G01 X139.766507 Y59.835869 Z-0.125000
G01 X139.127769 Y60.030902 Z-0.125000
G01 X138.383437 Y60.155834 Z-0.125000
G01 X137.503937 Y60.222277 Z-0.125000
G01 X136.459697 Y60.241844 Z-0.125000
G01 X134.968830 Y60.218351 Z-0.125000
G01 X133.965819 Y60.109903 Z-0.125000
G01 X133.557738 Y60.006021 Z-0.125000
G01 X133.164195 Y59.859540 Z-0.125000
G01 X132.277489 Y59.410304 Z-0.125000
G01 X131.629200 Y59.012901 Z-0.125000
G01 X130.973719 Y58.545563 Z-0.125000
G01 X130.387513 Y58.066569 Z-0.125000
G01 X129.947050 Y57.634198 Z-0.125000
G01 X129.602912 Y57.191577 Z-0.125000
G01 X129.206879 Y56.602174 Z-0.125000
G01 X128.379675 Y55.202298 Z-0.125000
G01 X127.706542 Y53.873130 Z-0.125000
G01 X127.503098 Y53.372110 Z-0.125000
G01 X127.428586 Y53.053226 Z-0.125000
G01 X127.551198 Y52.985682 Z-0.125000
G01 X127.917970 Y52.926950 Z-0.125000
G01 X129.377626 Y52.836161 Z-0.125000
G01 X131.794815 Y52.781336 Z-0.125000
G01 X135.156796 Y52.762955 Z-0.125000
G01 X142.885008 Y52.762955 Z-0.125000
G01 X143.035853 Y53.539066 Z-0.125000
G01 X143.035853 Y53.539066 Z-0.125000
G00 Z5.000000

(End cutting path id: path3009)


(Start cutting path id: path3009)
(Change tool to Default tool)

G00 Z5.000000
G00 X126.581920 Y52.730273

G01 Z-0.125000 F100.0(Penetrate)
G01 X126.671403 Y53.115530 Z-0.125000 F400.000000
G01 X126.915045 Y53.771396 Z-0.125000
G01 X127.715962 Y55.527784 Z-0.125000
G01 X128.366101 Y56.705522 Z-0.125000
G01 X129.061450 Y57.721713 Z-0.125000
G01 X129.813466 Y58.585036 Z-0.125000
G01 X130.633603 Y59.304166 Z-0.125000
G01 X131.533317 Y59.887781 Z-0.125000
G01 X132.524063 Y60.344559 Z-0.125000
G01 X133.617296 Y60.683177 Z-0.125000
G01 X134.824471 Y60.912310 Z-0.125000
G01 X135.709755 Y61.010120 Z-0.125000
G01 X136.555422 Y61.051035 Z-0.125000
G01 X137.360218 Y61.035756 Z-0.125000
G01 X138.122888 Y60.964985 Z-0.125000
G01 X138.842180 Y60.839423 Z-0.125000
G01 X139.516840 Y60.659770 Z-0.125000
G01 X140.145614 Y60.426728 Z-0.125000
G01 X140.727248 Y60.140998 Z-0.125000
G01 X141.260488 Y59.803281 Z-0.125000
G01 X141.744082 Y59.414277 Z-0.125000
G01 X142.176775 Y58.974689 Z-0.125000
G01 X142.557314 Y58.485217 Z-0.125000
G01 X142.884445 Y57.946561 Z-0.125000
G01 X143.156914 Y57.359425 Z-0.125000
G01 X143.373468 Y56.724507 Z-0.125000
G01 X143.532852 Y56.042510 Z-0.125000
G01 X143.636316 Y55.316822 Z-0.125000
G01 X143.693145 Y54.557417 Z-0.125000
G01 X143.699452 Y53.854360 Z-0.125000
G01 X143.651349 Y53.297712 Z-0.125000
G01 X143.465638 Y52.198510 Z-0.125000
G01 X135.023779 Y52.198510 Z-0.125000
G01 X130.295660 Y52.210018 Z-0.125000
G01 X127.772557 Y52.273511 Z-0.125000
G01 X127.122303 Y52.338331 Z-0.125000
G01 X126.764601 Y52.432444 Z-0.125000
G01 X126.613218 Y52.561281 Z-0.125000
G01 X126.581920 Y52.730273 Z-0.125000
G01 X126.581920 Y52.730273 Z-0.125000
G00 Z5.000000

(End cutting path id: path3009)


(Start cutting path id: path3009)
(Change tool to Default tool)

G00 Z5.000000
G00 X128.574572 Y26.802207

G01 Z-0.125000 F100.0(Penetrate)
G01 X127.421570 Y26.991459 Z-0.125000 F400.000000
G01 X126.303233 Y27.228864 Z-0.125000
G01 X125.221468 Y27.513246 Z-0.125000
G01 X124.178180 Y27.843431 Z-0.125000
G01 X123.175276 Y28.218246 Z-0.125000
G01 X122.214660 Y28.636514 Z-0.125000
G01 X121.298239 Y29.097061 Z-0.125000
G01 X120.427919 Y29.598713 Z-0.125000
G01 X119.605605 Y30.140295 Z-0.125000
G01 X118.833204 Y30.720633 Z-0.125000
G01 X118.112620 Y31.338551 Z-0.125000
G01 X117.445761 Y31.992875 Z-0.125000
G01 X116.834532 Y32.682431 Z-0.125000
G01 X116.280839 Y33.406043 Z-0.125000
G01 X115.786587 Y34.162537 Z-0.125000
G01 X115.353683 Y34.950739 Z-0.125000
G01 X114.901302 Y35.956032 Z-0.125000
G01 X114.517087 Y37.020485 Z-0.125000
G01 X114.200787 Y38.137955 Z-0.125000
G01 X113.952153 Y39.302298 Z-0.125000
G01 X113.770935 Y40.507371 Z-0.125000
G01 X113.656885 Y41.747030 Z-0.125000
G01 X113.609752 Y43.015133 Z-0.125000
G01 X113.629287 Y44.305535 Z-0.125000
G01 X113.715241 Y45.612094 Z-0.125000
G01 X113.867363 Y46.928666 Z-0.125000
G01 X114.085405 Y48.249108 Z-0.125000
G01 X114.369116 Y49.567276 Z-0.125000
G01 X114.718247 Y50.877028 Z-0.125000
G01 X115.132550 Y52.172219 Z-0.125000
G01 X115.611773 Y53.446707 Z-0.125000
G01 X116.155668 Y54.694348 Z-0.125000
G01 X116.803732 Y55.992259 Z-0.125000
G01 X117.505479 Y57.229408 Z-0.125000
G01 X118.260283 Y58.405295 Z-0.125000
G01 X119.067523 Y59.519420 Z-0.125000
G01 X119.926572 Y60.571282 Z-0.125000
G01 X120.836808 Y61.560382 Z-0.125000
G01 X121.797606 Y62.486219 Z-0.125000
G01 X122.808342 Y63.348292 Z-0.125000
G01 X123.868392 Y64.146102 Z-0.125000
G01 X124.977133 Y64.879148 Z-0.125000
G01 X126.133939 Y65.546931 Z-0.125000
G01 X127.338188 Y66.148949 Z-0.125000
G01 X128.589254 Y66.684703 Z-0.125000
G01 X129.886514 Y67.153693 Z-0.125000
G01 X131.229345 Y67.555418 Z-0.125000
G01 X132.617120 Y67.889378 Z-0.125000
G01 X133.744965 Y68.076095 Z-0.125000
G01 X135.073404 Y68.209105 Z-0.125000
G01 X136.532341 Y68.288456 Z-0.125000
G01 X138.051685 Y68.314197 Z-0.125000
G01 X139.561340 Y68.286375 Z-0.125000
G01 X140.991214 Y68.205038 Z-0.125000
G01 X142.271212 Y68.070234 Z-0.125000
G01 X143.331241 Y67.882012 Z-0.125000
G01 X144.366295 Y67.609125 Z-0.125000
G01 X145.353777 Y67.281620 Z-0.125000
G01 X146.293624 Y66.899558 Z-0.125000
G01 X147.185776 Y66.463002 Z-0.125000
G01 X148.030171 Y65.972012 Z-0.125000
G01 X148.826747 Y65.426652 Z-0.125000
G01 X149.575443 Y64.826983 Z-0.125000
G01 X150.276197 Y64.173067 Z-0.125000
G01 X150.928948 Y63.464966 Z-0.125000
G01 X151.533635 Y62.702742 Z-0.125000
G01 X152.090195 Y61.886456 Z-0.125000
G01 X152.598567 Y61.016172 Z-0.125000
G01 X153.058691 Y60.091949 Z-0.125000
G01 X153.470503 Y59.113851 Z-0.125000
G01 X153.833943 Y58.081940 Z-0.125000
G01 X154.148949 Y56.996277 Z-0.125000
G01 X154.328765 Y56.053670 Z-0.125000
G01 X154.472575 Y54.798460 Z-0.125000
G01 X154.577786 Y53.328839 Z-0.125000
G01 X154.641803 Y51.742998 Z-0.125000
G01 X154.662034 Y50.139129 Z-0.125000
G01 X154.635885 Y48.615425 Z-0.125000
G01 X154.560762 Y47.270077 Z-0.125000
G01 X154.434072 Y46.201277 Z-0.125000
G01 X154.205111 Y44.860721 Z-0.125000
G01 X140.072656 Y44.860721 Z-0.125000
G01 X125.940197 Y44.860721 Z-0.125000
G01 X126.088660 Y43.011186 Z-0.125000
G01 X126.193674 Y42.197096 Z-0.125000
G01 X126.374871 Y41.423215 Z-0.125000
G01 X126.632383 Y40.689305 Z-0.125000
G01 X126.966342 Y39.995125 Z-0.125000
G01 X127.376880 Y39.340436 Z-0.125000
G01 X127.864131 Y38.724997 Z-0.125000
G01 X128.428225 Y38.148569 Z-0.125000
G01 X129.069296 Y37.610912 Z-0.125000
G01 X129.792469 Y37.124980 Z-0.125000
G01 X130.603432 Y36.700382 Z-0.125000
G01 X131.496127 Y36.337231 Z-0.125000
G01 X132.464495 Y36.035641 Z-0.125000
G01 X133.502479 Y35.795726 Z-0.125000
G01 X134.604018 Y35.617600 Z-0.125000
G01 X135.763055 Y35.501375 Z-0.125000
G01 X136.973531 Y35.447167 Z-0.125000
G01 X138.229386 Y35.455088 Z-0.125000
G01 X139.524563 Y35.525253 Z-0.125000
G01 X140.853002 Y35.657775 Z-0.125000
G01 X142.208645 Y35.852768 Z-0.125000
G01 X143.585434 Y36.110345 Z-0.125000
G01 X144.977309 Y36.430620 Z-0.125000
G01 X146.378212 Y36.813707 Z-0.125000
G01 X147.782083 Y37.259720 Z-0.125000
G01 X149.552293 Y37.844260 Z-0.125000
G01 X150.392639 Y38.087388 Z-0.125000
G01 X150.499558 Y38.022447 Z-0.125000
G01 X150.554011 Y37.818717 Z-0.125000
G01 X150.554135 Y37.462832 Z-0.125000
G01 X150.498069 Y36.941430 Z-0.125000
G01 X150.209922 Y35.348616 Z-0.125000
G01 X149.674677 Y32.933364 Z-0.125000
G01 X148.773922 Y29.049340 Z-0.125000
G01 X146.815320 Y28.466043 Z-0.125000
G01 X144.731893 Y27.924434 Z-0.125000
G01 X142.426484 Y27.463025 Z-0.125000
G01 X139.981987 Y27.089376 Z-0.125000
G01 X137.481300 Y26.811050 Z-0.125000
G01 X135.007319 Y26.635608 Z-0.125000
G01 X132.642940 Y26.570610 Z-0.125000
G01 X130.471059 Y26.623619 Z-0.125000
G01 X128.574572 Y26.802196 Z-0.125000
G01 X128.574572 Y26.802207 Z-0.125000
G00 Z5.000000

(End cutting path id: path3009)


(Start cutting path id: path3009)
(Change tool to Default tool)

G00 Z5.000000
G00 X141.576911 Y27.925104

G01 Z-0.125000 F100.0(Penetrate)
G01 X144.071401 Y28.465603 Z-0.125000 F400.000000
G01 X146.251570 Y29.030704 Z-0.125000
G01 X148.207906 Y29.613327 Z-0.125000
G01 X149.081491 Y33.356474 Z-0.125000
G01 X149.685268 Y36.013403 Z-0.125000
G01 X149.910163 Y37.145005 Z-0.125000
G01 X149.298128 Y36.983532 Z-0.125000
G01 X147.889697 Y36.531593 Z-0.125000
G01 X146.594634 Y36.123219 Z-0.125000
G01 X145.351302 Y35.782353 Z-0.125000
G01 X144.132374 Y35.504773 Z-0.125000
G01 X142.910529 Y35.286257 Z-0.125000
G01 X141.658440 Y35.122584 Z-0.125000
G01 X140.348785 Y35.009532 Z-0.125000
G01 X138.954238 Y34.942882 Z-0.125000
G01 X137.447475 Y34.918410 Z-0.125000
G01 X135.364157 Y34.935954 Z-0.125000
G01 X133.880616 Y35.022594 Z-0.125000
G01 X132.719447 Y35.206734 Z-0.125000
G01 X131.603248 Y35.516778 Z-0.125000
G01 X130.761580 Y35.821683 Z-0.125000
G01 X129.976620 Y36.175312 Z-0.125000
G01 X129.248513 Y36.577556 Z-0.125000
G01 X128.577406 Y37.028306 Z-0.125000
G01 X127.963444 Y37.527456 Z-0.125000
G01 X127.406775 Y38.074896 Z-0.125000
G01 X126.907543 Y38.670520 Z-0.125000
G01 X126.465895 Y39.314219 Z-0.125000
G01 X126.032836 Y40.095371 Z-0.125000
G01 X125.761259 Y40.850723 Z-0.125000
G01 X125.602334 Y41.770247 Z-0.125000
G01 X125.507231 Y43.043918 Z-0.125000
G01 X125.382249 Y45.425177 Z-0.125000
G01 X139.511459 Y45.425177 Z-0.125000
G01 X153.640667 Y45.425177 Z-0.125000
G01 X153.867904 Y46.765732 Z-0.125000
G01 X153.988640 Y47.759041 Z-0.125000
G01 X154.060102 Y48.964624 Z-0.125000
G01 X154.084538 Y50.307053 Z-0.125000
G01 X154.064193 Y51.710898 Z-0.125000
G01 X154.001316 Y53.100730 Z-0.125000
G01 X153.898153 Y54.401117 Z-0.125000
G01 X153.756952 Y55.536632 Z-0.125000
G01 X153.579958 Y56.431844 Z-0.125000
G01 X153.251187 Y57.562709 Z-0.125000
G01 X152.863971 Y58.644580 Z-0.125000
G01 X152.420814 Y59.672953 Z-0.125000
G01 X151.924220 Y60.643321 Z-0.125000
G01 X151.376695 Y61.551181 Z-0.125000
G01 X150.780741 Y62.392026 Z-0.125000
G01 X150.138865 Y63.161353 Z-0.125000
G01 X149.453570 Y63.854655 Z-0.125000
G01 X148.327515 Y64.804984 Z-0.125000
G01 X147.151941 Y65.610081 Z-0.125000
G01 X145.909748 Y66.275763 Z-0.125000
G01 X144.583833 Y66.807848 Z-0.125000
G01 X143.157095 Y67.212153 Z-0.125000
G01 X141.612432 Y67.494496 Z-0.125000
G01 X139.932743 Y67.660695 Z-0.125000
G01 X138.100927 Y67.716567 Z-0.125000
G01 X136.882868 Y67.696416 Z-0.125000
G01 X135.720428 Y67.631173 Z-0.125000
G01 X134.602062 Y67.518831 Z-0.125000
G01 X133.516226 Y67.357381 Z-0.125000
G01 X132.451378 Y67.144815 Z-0.125000
G01 X131.395972 Y66.879127 Z-0.125000
G01 X130.338464 Y66.558307 Z-0.125000
G01 X129.267312 Y66.180349 Z-0.125000
G01 X127.710272 Y65.518959 Z-0.125000
G01 X126.215177 Y64.733401 Z-0.125000
G01 X124.786404 Y63.830055 Z-0.125000
G01 X123.428330 Y62.815303 Z-0.125000
G01 X122.145334 Y61.695526 Z-0.125000
G01 X120.941792 Y60.477107 Z-0.125000
G01 X119.822081 Y59.166427 Z-0.125000
G01 X118.790579 Y57.769867 Z-0.125000
G01 X117.851663 Y56.293809 Z-0.125000
G01 X117.009711 Y54.744635 Z-0.125000
G01 X116.269100 Y53.128727 Z-0.125000
G01 X115.634207 Y51.452465 Z-0.125000
G01 X115.109410 Y49.722231 Z-0.125000
G01 X114.699086 Y47.944408 Z-0.125000
G01 X114.407612 Y46.125376 Z-0.125000
G01 X114.239365 Y44.271517 Z-0.125000
G01 X114.211481 Y42.566329 Z-0.125000
G01 X114.322266 Y40.935413 Z-0.125000
G01 X114.569408 Y39.381389 Z-0.125000
G01 X114.950595 Y37.906882 Z-0.125000
G01 X115.463516 Y36.514511 Z-0.125000
G01 X116.105860 Y35.206901 Z-0.125000
G01 X116.875314 Y33.986672 Z-0.125000
G01 X117.769569 Y32.856446 Z-0.125000
G01 X118.786311 Y31.818847 Z-0.125000
G01 X119.923231 Y30.876496 Z-0.125000
G01 X121.178015 Y30.032015 Z-0.125000
G01 X122.548354 Y29.288027 Z-0.125000
G01 X124.031935 Y28.647152 Z-0.125000
G01 X125.626446 Y28.112015 Z-0.125000
G01 X127.329577 Y27.685236 Z-0.125000
G01 X129.139017 Y27.369437 Z-0.125000
G01 X130.281085 Y27.265005 Z-0.125000
G01 X131.717547 Y27.218140 Z-0.125000
G01 X133.360158 Y27.224901 Z-0.125000
G01 X135.120674 Y27.281345 Z-0.125000
G01 X136.910851 Y27.383529 Z-0.125000
G01 X138.642446 Y27.527512 Z-0.125000
G01 X140.227214 Y27.709351 Z-0.125000
G01 X141.576911 Y27.925104 Z-0.125000
G01 X141.576911 Y27.925104 Z-0.125000
G00 Z5.000000

(End cutting path id: path3009)


(Start cutting path id: path3009)
(Change tool to Default tool)

G00 Z5.000000
G00 X49.452686 Y49.164621

G01 Z-0.125000 F100.0(Penetrate)
G01 X47.675843 Y60.430969 Z-0.125000 F400.000000
G01 X46.042755 Y71.062322 Z-0.125000
G01 X40.713897 Y61.277636 Z-0.125000
G01 X34.555512 Y50.011288 Z-0.125000
G01 X33.725982 Y48.529621 Z-0.125000
G01 X41.661213 Y48.529621 Z-0.125000
G01 X49.596444 Y48.529621 Z-0.125000
G01 X49.452686 Y49.164621 Z-0.125000
G01 X49.452686 Y49.164621 Z-0.125000
G00 Z5.000000

(End cutting path id: path3009)


(Start cutting path id: path3009)
(Change tool to Default tool)

G00 Z5.000000
G00 X22.160606 Y30.537955

G01 Z-0.125000 F100.0(Penetrate)
G01 X23.192557 Y31.898035 Z-0.125000 F400.000000
G01 X24.499938 Y33.441245 Z-0.125000
G01 X26.006743 Y35.091384 Z-0.125000
G01 X27.636966 Y36.772254 Z-0.125000
G01 X29.314602 Y38.407656 Z-0.125000
G01 X30.963643 Y39.921389 Z-0.125000
G01 X32.508084 Y41.237255 Z-0.125000
G01 X33.871919 Y42.279054 Z-0.125000
G01 X35.099854 Y43.102514 Z-0.125000
G01 X36.410009 Y43.905183 Z-0.125000
G01 X37.769803 Y44.670924 Z-0.125000
G01 X39.146656 Y45.383601 Z-0.125000
G01 X40.507987 Y46.027077 Z-0.125000
G01 X41.821213 Y46.585215 Z-0.125000
G01 X43.053755 Y47.041880 Z-0.125000
G01 X44.173030 Y47.380934 Z-0.125000
G01 X46.289697 Y47.934099 Z-0.125000
G01 X39.586919 Y47.949649 Z-0.125000
G01 X36.357296 Y47.973959 Z-0.125000
G01 X34.298380 Y48.036173 Z-0.125000
G01 X33.212031 Y48.147204 Z-0.125000
G01 X32.971650 Y48.224437 Z-0.125000
G01 X32.900109 Y48.317966 Z-0.125000
G01 X33.049792 Y48.701832 Z-0.125000
G01 X33.462198 Y49.543243 Z-0.125000
G01 X34.927552 Y52.333017 Z-0.125000
G01 X39.387028 Y60.480623 Z-0.125000
G01 X43.916478 Y68.509908 Z-0.125000
G01 X45.469299 Y71.151782 Z-0.125000
G01 X45.938558 Y71.897058 Z-0.125000
G01 X46.153841 Y72.169999 Z-0.125000
G01 X46.217695 Y72.161055 Z-0.125000
G01 X46.282593 Y72.105880 Z-0.125000
G01 X46.420121 Y71.834002 Z-0.125000
G01 X46.575626 Y71.308705 Z-0.125000
G01 X46.758310 Y70.484331 Z-0.125000
G01 X47.242026 Y67.755706 Z-0.125000
G01 X47.944882 Y63.282847 Z-0.125000
G01 X49.840639 Y50.928521 Z-0.125000
G01 X50.543222 Y46.754278 Z-0.125000
G01 X51.498280 Y41.474077 Z-0.125000
G01 X52.636412 Y35.335744 Z-0.125000
G01 X52.058370 Y35.285914 Z-0.125000
G01 X50.664141 Y35.265188 Z-0.125000
G01 X49.268356 Y35.203011 Z-0.125000
G01 X48.843325 Y35.135708 Z-0.125000
G01 X48.686715 Y35.053521 Z-0.125000
G01 X48.124141 Y31.596299 Z-0.125000
G01 X47.561568 Y28.139077 Z-0.125000
G01 X50.216636 Y28.072464 Z-0.125000
G01 X57.217457 Y28.013229 Z-0.125000
G01 X78.462431 Y27.930123 Z-0.125000
G01 X99.708641 Y27.916217 Z-0.125000
G01 X106.711005 Y27.943481 Z-0.125000
G01 X109.368235 Y27.997966 Z-0.125000
G01 X109.930808 Y31.314077 Z-0.125000
G01 X110.327354 Y33.709879 Z-0.125000
G01 X110.493382 Y34.912410 Z-0.125000
G01 X110.463261 Y35.000202 Z-0.125000
G01 X110.369174 Y35.074258 Z-0.125000
G01 X109.973110 Y35.183667 Z-0.125000
G01 X109.273205 Y35.245642 Z-0.125000
G01 X108.237475 Y35.265188 Z-0.125000
G01 X106.642919 Y35.311921 Z-0.125000
G01 X106.157850 Y35.362507 Z-0.125000
G01 X105.979697 Y35.424280 Z-0.125000
G01 X113.553963 Y80.773515 Z-0.125000
G01 X114.358065 Y85.500738 Z-0.125000
G01 X106.641102 Y85.500738 Z-0.125000
G01 X101.190556 Y85.438561 Z-0.125000
G01 X99.532138 Y85.371257 Z-0.125000
G01 X99.080444 Y85.331590 Z-0.125000
G01 X98.922637 Y85.289071 Z-0.125000
G01 X98.358193 Y81.742576 Z-0.125000
G01 X97.795253 Y78.285354 Z-0.125000
G01 X97.984540 Y78.237830 Z-0.125000
G01 X98.499926 Y78.198913 Z-0.125000
G01 X100.194142 Y78.162960 Z-0.125000
G01 X102.593031 Y78.162960 Z-0.125000
G01 X102.581544 Y77.386849 Z-0.125000
G01 X102.304443 Y75.459855 Z-0.125000
G01 X101.558455 Y70.786817 Z-0.125000
G01 X99.114819 Y56.008510 Z-0.125000
G01 X95.659576 Y35.406288 Z-0.125000
G01 X90.236300 Y35.329639 Z-0.125000
G01 X87.761995 Y35.312428 Z-0.125000
G01 X86.078515 Y35.344541 Z-0.125000
G01 X85.118110 Y35.428965 Z-0.125000
G01 X84.887889 Y35.491726 Z-0.125000
G01 X84.813030 Y35.568684 Z-0.125000
G01 X86.015121 Y42.993783 Z-0.125000
G01 X88.905253 Y60.402298 Z-0.125000
G01 X92.997475 Y85.215016 Z-0.125000
G01 X92.880572 Y85.283828 Z-0.125000
G01 X92.528027 Y85.340669 Z-0.125000
G01 X91.104999 Y85.418750 Z-0.125000
G01 X88.706360 Y85.449890 Z-0.125000
G01 X85.310083 Y85.434717 Z-0.125000
G01 X77.622691 Y85.359627 Z-0.125000
G01 X77.169166 Y82.936802 Z-0.125000
G01 X76.527666 Y79.338469 Z-0.125000
G01 X76.339692 Y78.162960 Z-0.125000
G01 X78.883028 Y78.162960 Z-0.125000
G01 X80.155550 Y78.145341 Z-0.125000
G01 X80.932586 Y78.080642 Z-0.125000
G01 X81.168590 Y78.025087 Z-0.125000
G01 X81.320676 Y77.951101 Z-0.125000
G01 X81.402161 Y77.856465 Z-0.125000
G01 X81.426364 Y77.738958 Z-0.125000
G01 X80.381189 Y71.167436 Z-0.125000
G01 X78.062686 Y57.062974 Z-0.125000
G01 X75.696390 Y42.836810 Z-0.125000
G01 X74.507836 Y35.900177 Z-0.125000
G01 X74.447985 Y35.692733 Z-0.125000
G01 X74.341077 Y35.536236 Z-0.125000
G01 X74.131791 Y35.423506 Z-0.125000
G01 X73.764804 Y35.347368 Z-0.125000
G01 X72.336445 Y35.276155 Z-0.125000
G01 X69.613428 Y35.265177 Z-0.125000
G01 X64.866800 Y35.265177 Z-0.125000
G01 X59.859534 Y57.066844 Z-0.125000
G01 X54.701807 Y79.508928 Z-0.125000
G01 X54.551343 Y80.149344 Z-0.125000
G01 X48.460748 Y80.073373 Z-0.125000
G01 X42.370152 Y79.997404 Z-0.125000
G01 X26.902704 Y54.059687 Z-0.125000
G01 X11.435253 Y28.024687 Z-0.125000
G01 X12.742536 Y27.955977 Z-0.125000
G01 X15.885579 Y27.927399 Z-0.125000
G01 X20.335907 Y27.927399 Z-0.125000
G01 X22.160606 Y30.537955 Z-0.125000
G01 X22.160606 Y30.537955 Z-0.125000
G00 Z5.000000

(End cutting path id: path3009)


(Start cutting path id: path3009)
(Change tool to Default tool)

G00 Z5.000000
G00 X10.660068 Y27.997954

G01 Z-0.125000 F100.0(Penetrate)
G01 X11.936751 Y30.293270 Z-0.125000 F400.000000
G01 X15.311386 Y36.073479 Z-0.125000
G01 X26.301562 Y54.597399 Z-0.125000
G01 X41.805773 Y80.561849 Z-0.125000
G01 X48.460875 Y80.637436 Z-0.125000
G01 X55.115980 Y80.713024 Z-0.125000
G01 X55.266348 Y80.072992 Z-0.125000
G01 X60.423979 Y57.631288 Z-0.125000
G01 X65.431244 Y35.829621 Z-0.125000
G01 X69.613428 Y35.829621 Z-0.125000
G01 X72.001609 Y35.841178 Z-0.125000
G01 X73.263402 Y35.913357 Z-0.125000
G01 X73.591745 Y35.989760 Z-0.125000
G01 X73.782303 Y36.102417 Z-0.125000
G01 X73.883012 Y36.258360 Z-0.125000
G01 X73.941811 Y36.464621 Z-0.125000
G01 X77.334141 Y56.714066 Z-0.125000
G01 X80.726472 Y76.963515 Z-0.125000
G01 X80.766851 Y77.169494 Z-0.125000
G01 X80.762888 Y77.325304 Z-0.125000
G01 X80.688144 Y77.437944 Z-0.125000
G01 X80.516178 Y77.514411 Z-0.125000
G01 X79.774821 Y77.586820 Z-0.125000
G01 X78.327296 Y77.598515 Z-0.125000
G01 X75.781919 Y77.598515 Z-0.125000
G01 X75.807827 Y78.515738 Z-0.125000
G01 X76.005046 Y80.116908 Z-0.125000
G01 X76.442827 Y82.678515 Z-0.125000
G01 X77.051919 Y85.924071 Z-0.125000
G01 X85.217839 Y85.999038 Z-0.125000
G01 X91.044450 Y85.988512 Z-0.125000
G01 X92.863176 Y85.935911 Z-0.125000
G01 X93.586072 Y85.857927 Z-0.125000
G01 X93.541810 Y85.306051 Z-0.125000
G01 X93.336390 Y83.808269 Z-0.125000
G01 X92.507008 Y78.387250 Z-0.125000
G01 X89.628566 Y60.729264 Z-0.125000
G01 X85.468748 Y35.816684 Z-0.125000
G01 X90.274742 Y35.893708 Z-0.125000
G01 X95.080735 Y35.970732 Z-0.125000
G01 X98.543906 Y56.572955 Z-0.125000
G01 X102.017833 Y77.386849 Z-0.125000
G01 X101.832727 Y77.469035 Z-0.125000
G01 X101.320759 Y77.536338 Z-0.125000
G01 X99.629697 Y77.598515 Z-0.125000
G01 X97.230808 Y77.598515 Z-0.125000
G01 X97.232784 Y78.374627 Z-0.125000
G01 X97.398691 Y79.876137 Z-0.125000
G01 X97.795253 Y82.396293 Z-0.125000
G01 X98.357826 Y85.853515 Z-0.125000
G01 X98.528156 Y85.896035 Z-0.125000
G01 X99.015533 Y85.935702 Z-0.125000
G01 X100.804817 Y86.003005 Z-0.125000
G01 X106.685253 Y86.065182 Z-0.125000
G01 X112.565176 Y85.993022 Z-0.125000
G01 X114.353870 Y85.914913 Z-0.125000
G01 X114.840882 Y85.868878 Z-0.125000
G01 X115.010808 Y85.819533 Z-0.125000
G01 X110.918586 Y61.170798 Z-0.125000
G01 X108.028454 Y43.798335 Z-0.125000
G01 X106.826364 Y36.298666 Z-0.125000
G01 X106.844875 Y36.164086 Z-0.125000
G01 X106.910190 Y36.057243 Z-0.125000
G01 X107.036980 Y35.975116 Z-0.125000
G01 X107.239916 Y35.914690 Z-0.125000
G01 X107.932918 Y35.846864 Z-0.125000
G01 X109.106567 Y35.829621 Z-0.125000
G01 X111.386767 Y35.829621 Z-0.125000
G01 X111.230351 Y35.053510 Z-0.125000
G01 X110.636364 Y31.596288 Z-0.125000
G01 X110.042376 Y28.139066 Z-0.125000
G01 X109.885960 Y27.362954 Z-0.125000
G01 X78.440605 Y27.362954 Z-0.125000
G01 X46.995252 Y27.362954 Z-0.125000
G01 X46.997228 Y28.139066 Z-0.125000
G01 X47.163293 Y29.640576 Z-0.125000
G01 X47.559801 Y32.160732 Z-0.125000
G01 X48.122375 Y35.617955 Z-0.125000
G01 X48.267892 Y35.700141 Z-0.125000
G01 X48.662602 Y35.767444 Z-0.125000
G01 X49.958690 Y35.829621 Z-0.125000
G01 X51.254267 Y35.897405 Z-0.125000
G01 X51.648386 Y35.970777 Z-0.125000
G01 X51.793135 Y36.060375 Z-0.125000
G01 X50.809110 Y41.634263 Z-0.125000
G01 X49.821333 Y47.189066 Z-0.125000
G01 X49.712129 Y47.271252 Z-0.125000
G01 X49.417462 Y47.338555 Z-0.125000
G01 X48.451612 Y47.400732 Z-0.125000
G01 X47.774534 Y47.373315 Z-0.125000
G01 X47.046988 Y47.292451 Z-0.125000
G01 X45.461022 Y46.978714 Z-0.125000
G01 X43.734775 Y46.476179 Z-0.125000
G01 X41.909309 Y45.801506 Z-0.125000
G01 X40.025684 Y44.971353 Z-0.125000
G01 X38.124961 Y44.002380 Z-0.125000
G01 X36.248202 Y42.911246 Z-0.125000
G01 X34.436468 Y41.714609 Z-0.125000
G01 X33.072632 Y40.672810 Z-0.125000
G01 X31.528191 Y39.356944 Z-0.125000
G01 X29.879149 Y37.843211 Z-0.125000
G01 X28.201514 Y36.207810 Z-0.125000
G01 X26.571291 Y34.526940 Z-0.125000
G01 X25.064486 Y32.876800 Z-0.125000
G01 X23.757105 Y31.333591 Z-0.125000
G01 X22.725155 Y29.973510 Z-0.125000
G01 X20.900456 Y27.362954 Z-0.125000
G01 X15.711673 Y27.362954 Z-0.125000
G01 X10.522891 Y27.362954 Z-0.125000
G01 X10.660172 Y27.997954 Z-0.125000
G01 X10.660068 Y27.997954 Z-0.125000
G00 Z5.000000

(End cutting path id: path3009)


(Start cutting path id: path3009)
(Change tool to Default tool)

G00 Z5.000000
G00 X241.305254 Y26.686750

G01 Z-0.125000 F100.0(Penetrate)
G01 X239.731112 Y26.954304 Z-0.125000 F400.000000
G01 X238.251520 Y27.277221 Z-0.125000
G01 X236.864945 Y27.656712 Z-0.125000
G01 X235.569858 Y28.093985 Z-0.125000
G01 X234.364726 Y28.590248 Z-0.125000
G01 X233.248017 Y29.146711 Z-0.125000
G01 X232.218201 Y29.764581 Z-0.125000
G01 X231.273746 Y30.445069 Z-0.125000
G01 X230.413121 Y31.189383 Z-0.125000
G01 X229.634794 Y31.998731 Z-0.125000
G01 X228.937233 Y32.874323 Z-0.125000
G01 X228.318907 Y33.817366 Z-0.125000
G01 X227.778286 Y34.829071 Z-0.125000
G01 X227.313836 Y35.910646 Z-0.125000
G01 X226.924028 Y37.063299 Z-0.125000
G01 X226.607329 Y38.288240 Z-0.125000
G01 X226.411972 Y39.442037 Z-0.125000
G01 X226.292164 Y40.768097 Z-0.125000
G01 X226.245923 Y42.215982 Z-0.125000
G01 X226.271264 Y43.735252 Z-0.125000
G01 X226.366205 Y45.275468 Z-0.125000
G01 X226.528763 Y46.786191 Z-0.125000
G01 X226.756955 Y48.216981 Z-0.125000
G01 X227.048798 Y49.517399 Z-0.125000
G01 X227.465936 Y50.917152 Z-0.125000
G01 X227.966824 Y52.291893 Z-0.125000
G01 X228.547703 Y53.637262 Z-0.125000
G01 X229.204811 Y54.948897 Z-0.125000
G01 X229.934389 Y56.222438 Z-0.125000
G01 X230.732676 Y57.453524 Z-0.125000
G01 X231.595912 Y58.637795 Z-0.125000
G01 X232.520336 Y59.770889 Z-0.125000
G01 X233.502188 Y60.848445 Z-0.125000
G01 X234.537708 Y61.866104 Z-0.125000
G01 X235.623134 Y62.819503 Z-0.125000
G01 X236.754708 Y63.704283 Z-0.125000
G01 X237.928668 Y64.516083 Z-0.125000
G01 X239.141254 Y65.250541 Z-0.125000
G01 X240.388706 Y65.903297 Z-0.125000
G01 X241.667263 Y66.469990 Z-0.125000
G01 X242.934170 Y66.937718 Z-0.125000
G01 X244.249530 Y67.339392 Z-0.125000
G01 X245.604880 Y67.675157 Z-0.125000
G01 X246.991757 Y67.945156 Z-0.125000
G01 X248.401699 Y68.149533 Z-0.125000
G01 X249.826242 Y68.288431 Z-0.125000
G01 X251.256926 Y68.361994 Z-0.125000
G01 X252.685287 Y68.370366 Z-0.125000
G01 X254.102861 Y68.313690 Z-0.125000
G01 X255.501188 Y68.192111 Z-0.125000
G01 X256.871804 Y68.005770 Z-0.125000
G01 X258.206247 Y67.754813 Z-0.125000
G01 X259.496054 Y67.439383 Z-0.125000
G01 X260.732762 Y67.059624 Z-0.125000
G01 X261.907910 Y66.615678 Z-0.125000
G01 X263.013033 Y66.107691 Z-0.125000
G01 X263.682290 Y65.721360 Z-0.125000
G01 X264.400418 Y65.222809 Z-0.125000
G01 X265.138965 Y64.638418 Z-0.125000
G01 X265.869479 Y63.994567 Z-0.125000
G01 X266.563510 Y63.317633 Z-0.125000
G01 X267.192605 Y62.633997 Z-0.125000
G01 X267.728313 Y61.970039 Z-0.125000
G01 X268.142183 Y61.352137 Z-0.125000
G01 X268.701233 Y60.351786 Z-0.125000
G01 X269.142437 Y59.431208 Z-0.125000
G01 X269.479104 Y58.524926 Z-0.125000
G01 X269.724543 Y57.567463 Z-0.125000
G01 X269.892063 Y56.493345 Z-0.125000
G01 X269.994974 Y55.237093 Z-0.125000
G01 X270.046586 Y53.733233 Z-0.125000
G01 X270.060207 Y51.916288 Z-0.125000
G01 X270.036491 Y49.283841 Z-0.125000
G01 X269.946381 Y47.459486 Z-0.125000
G01 X269.756987 Y46.064366 Z-0.125000
G01 X269.435418 Y44.719621 Z-0.125000
G01 X268.926976 Y43.073893 Z-0.125000
G01 X268.328253 Y41.494267 Z-0.125000
G01 X267.641137 Y39.982573 Z-0.125000
G01 X266.867516 Y38.540643 Z-0.125000
G01 X266.009279 Y37.170308 Z-0.125000
G01 X265.068313 Y35.873400 Z-0.125000
G01 X264.046506 Y34.651749 Z-0.125000
G01 X262.945746 Y33.507188 Z-0.125000
G01 X261.767921 Y32.441547 Z-0.125000
G01 X260.514920 Y31.456658 Z-0.125000
G01 X259.188629 Y30.554351 Z-0.125000
G01 X257.790937 Y29.736460 Z-0.125000
G01 X256.323732 Y29.004814 Z-0.125000
G01 X254.788902 Y28.361245 Z-0.125000
G01 X253.188335 Y27.807584 Z-0.125000
G01 X251.523919 Y27.345663 Z-0.125000
G01 X250.516335 Y27.147222 Z-0.125000
G01 X249.245635 Y26.969949 Z-0.125000
G01 X246.286980 Y26.702903 Z-0.125000
G01 X243.392128 Y26.592508 Z-0.125000
G01 X242.201182 Y26.611050 Z-0.125000
G01 X241.305254 Y26.686750 Z-0.125000
G01 X241.305254 Y26.686750 Z-0.125000
G00 Z5.000000

(End cutting path id: path3009)


(Start cutting path id: path3009)
(Change tool to Default tool)

G00 Z5.000000
G00 X242.630583 Y35.782555

G01 Z-0.125000 F100.0(Penetrate)
G01 X241.965435 Y36.053486 Z-0.125000 F400.000000
G01 X241.354376 Y36.371776 Z-0.125000
G01 X240.797138 Y36.738067 Z-0.125000
G01 X240.293457 Y37.153001 Z-0.125000
G01 X239.843066 Y37.617221 Z-0.125000
G01 X239.445699 Y38.131368 Z-0.125000
G01 X239.101090 Y38.696083 Z-0.125000
G01 X238.808973 Y39.312009 Z-0.125000
G01 X238.569083 Y39.979788 Z-0.125000
G01 X238.381152 Y40.700061 Z-0.125000
G01 X238.244915 Y41.473471 Z-0.125000
G01 X238.160106 Y42.300659 Z-0.125000
G01 X238.126459 Y43.182268 Z-0.125000
G01 X238.143708 Y44.118938 Z-0.125000
G01 X238.211587 Y45.111312 Z-0.125000
G01 X238.329830 Y46.160033 Z-0.125000
G01 X238.522708 Y47.396418 Z-0.125000
G01 X238.765338 Y48.585736 Z-0.125000
G01 X239.056436 Y49.725983 Z-0.125000
G01 X239.394718 Y50.815157 Z-0.125000
G01 X239.778902 Y51.851255 Z-0.125000
G01 X240.207705 Y52.832275 Z-0.125000
G01 X240.679843 Y53.756214 Z-0.125000
G01 X241.194034 Y54.621070 Z-0.125000
G01 X241.748994 Y55.424841 Z-0.125000
G01 X242.343440 Y56.165523 Z-0.125000
G01 X242.976089 Y56.841115 Z-0.125000
G01 X243.645659 Y57.449614 Z-0.125000
G01 X244.350865 Y57.989016 Z-0.125000
G01 X245.090426 Y58.457321 Z-0.125000
G01 X245.863057 Y58.852525 Z-0.125000
G01 X246.667476 Y59.172625 Z-0.125000
G01 X247.479787 Y59.392602 Z-0.125000
G01 X248.422059 Y59.549340 Z-0.125000
G01 X249.447844 Y59.642887 Z-0.125000
G01 X250.510693 Y59.673295 Z-0.125000
G01 X251.564158 Y59.640613 Z-0.125000
G01 X252.561792 Y59.544891 Z-0.125000
G01 X253.457144 Y59.386178 Z-0.125000
G01 X254.203769 Y59.164525 Z-0.125000
G01 X254.741460 Y58.917594 Z-0.125000
G01 X255.268769 Y58.598432 Z-0.125000
G01 X255.777830 Y58.214881 Z-0.125000
G01 X256.260777 Y57.774780 Z-0.125000
G01 X256.709744 Y57.285971 Z-0.125000
G01 X257.116866 Y56.756294 Z-0.125000
G01 X257.474276 Y56.193589 Z-0.125000
G01 X257.774108 Y55.605697 Z-0.125000
G01 X257.894720 Y55.261446 Z-0.125000
G01 X257.996701 Y54.815962 Z-0.125000
G01 X258.145624 Y53.670354 Z-0.125000
G01 X258.222578 Y52.266978 Z-0.125000
G01 X258.229261 Y50.703937 Z-0.125000
G01 X258.167372 Y49.079338 Z-0.125000
G01 X258.038610 Y47.491285 Z-0.125000
G01 X257.844675 Y46.037881 Z-0.125000
G01 X257.587266 Y44.817233 Z-0.125000
G01 X257.102403 Y43.246816 Z-0.125000
G01 X256.532427 Y41.822415 Z-0.125000
G01 X255.876033 Y40.542262 Z-0.125000
G01 X255.131912 Y39.404588 Z-0.125000
G01 X254.298758 Y38.407624 Z-0.125000
G01 X253.375264 Y37.549601 Z-0.125000
G01 X252.360122 Y36.828749 Z-0.125000
G01 X251.252026 Y36.243300 Z-0.125000
G01 X250.296949 Y35.886033 Z-0.125000
G01 X249.228394 Y35.610194 Z-0.125000
G01 X248.085587 Y35.417880 Z-0.125000
G01 X246.907749 Y35.311187 Z-0.125000
G01 X245.734106 Y35.292211 Z-0.125000
G01 X244.603882 Y35.363049 Z-0.125000
G01 X243.556299 Y35.525796 Z-0.125000
G01 X242.630583 Y35.782549 Z-0.125000
G01 X242.630583 Y35.782555 Z-0.125000
G00 Z5.000000

(End cutting path id: path3009)


(Start cutting path id: path3009)
(Change tool to Default tool)

G00 Z5.000000
G00 X250.788838 Y36.853190

G01 Z-0.125000 F100.0(Penetrate)
G01 X251.356341 Y37.134587 Z-0.125000 F400.000000
G01 X251.905478 Y37.460480 Z-0.125000
G01 X252.435193 Y37.829360 Z-0.125000
G01 X252.944429 Y38.239712 Z-0.125000
G01 X253.432130 Y38.690027 Z-0.125000
G01 X253.897239 Y39.178790 Z-0.125000
G01 X254.755457 Y40.265618 Z-0.125000
G01 X255.510632 Y41.488100 Z-0.125000
G01 X256.154314 Y42.834140 Z-0.125000
G01 X256.678053 Y44.291642 Z-0.125000
G01 X257.073396 Y45.848510 Z-0.125000
G01 X257.409593 Y47.706531 Z-0.125000
G01 X257.622924 Y49.403764 Z-0.125000
G01 X257.713008 Y50.945444 Z-0.125000
G01 X257.679467 Y52.336805 Z-0.125000
G01 X257.521922 Y53.583081 Z-0.125000
G01 X257.239992 Y54.689508 Z-0.125000
G01 X256.833299 Y55.661320 Z-0.125000
G01 X256.583048 Y56.098381 Z-0.125000
G01 X256.301464 Y56.503751 Z-0.125000
G01 X255.873935 Y57.026769 Z-0.125000
G01 X255.443987 Y57.470999 Z-0.125000
G01 X254.997623 Y57.844376 Z-0.125000
G01 X254.520847 Y58.154839 Z-0.125000
G01 X253.999663 Y58.410324 Z-0.125000
G01 X253.420074 Y58.618770 Z-0.125000
G01 X252.768085 Y58.788114 Z-0.125000
G01 X252.029698 Y58.926293 Z-0.125000
G01 X250.933799 Y59.046986 Z-0.125000
G01 X249.868073 Y59.056676 Z-0.125000
G01 X248.834896 Y58.957309 Z-0.125000
G01 X247.836643 Y58.750828 Z-0.125000
G01 X246.875691 Y58.439179 Z-0.125000
G01 X245.954415 Y58.024306 Z-0.125000
G01 X245.075191 Y57.508154 Z-0.125000
G01 X244.240394 Y56.892668 Z-0.125000
G01 X243.452402 Y56.179793 Z-0.125000
G01 X242.713589 Y55.371473 Z-0.125000
G01 X242.026331 Y54.469654 Z-0.125000
G01 X241.393005 Y53.476280 Z-0.125000
G01 X240.815986 Y52.393295 Z-0.125000
G01 X240.297650 Y51.222645 Z-0.125000
G01 X239.840372 Y49.966274 Z-0.125000
G01 X239.446530 Y48.626127 Z-0.125000
G01 X239.220073 Y47.609778 Z-0.125000
G01 X239.044709 Y46.510486 Z-0.125000
G01 X238.921894 Y45.368235 Z-0.125000
G01 X238.853085 Y44.223009 Z-0.125000
G01 X238.839742 Y43.114792 Z-0.125000
G01 X238.883320 Y42.083566 Z-0.125000
G01 X238.985279 Y41.169317 Z-0.125000
G01 X239.147075 Y40.412027 Z-0.125000
G01 X239.335241 Y39.892539 Z-0.125000
G01 X239.597663 Y39.361853 Z-0.125000
G01 X239.922054 Y38.835289 Z-0.125000
G01 X240.296129 Y38.328166 Z-0.125000
G01 X240.707600 Y37.855804 Z-0.125000
G01 X241.144182 Y37.433522 Z-0.125000
G01 X241.593588 Y37.076640 Z-0.125000
G01 X242.043533 Y36.800477 Z-0.125000
G01 X242.963976 Y36.414244 Z-0.125000
G01 X243.993608 Y36.140607 Z-0.125000
G01 X245.102509 Y35.979385 Z-0.125000
G01 X246.260758 Y35.930398 Z-0.125000
G01 X247.438436 Y35.993465 Z-0.125000
G01 X248.605622 Y36.168407 Z-0.125000
G01 X249.732396 Y36.455042 Z-0.125000
G01 X250.788838 Y36.853190 Z-0.125000
G01 X250.788838 Y36.853190 Z-0.125000
G00 Z5.000000

(End cutting path id: path3009)


(Start cutting path id: path3009)
(Change tool to Default tool)

G00 Z5.000000
G00 X250.959475 Y27.916807

G01 Z-0.125000 F100.0(Penetrate)
G01 X252.336951 Y28.287211 Z-0.125000 F400.000000
G01 X253.671532 Y28.720665 Z-0.125000
G01 X254.962157 Y29.216322 Z-0.125000
G01 X256.207765 Y29.773333 Z-0.125000
G01 X257.407296 Y30.390853 Z-0.125000
G01 X258.559687 Y31.068032 Z-0.125000
G01 X259.663878 Y31.804024 Z-0.125000
G01 X260.718808 Y32.597980 Z-0.125000
G01 X261.723415 Y33.449054 Z-0.125000
G01 X262.676639 Y34.356398 Z-0.125000
G01 X263.577419 Y35.319165 Z-0.125000
G01 X264.424693 Y36.336506 Z-0.125000
G01 X265.217400 Y37.407574 Z-0.125000
G01 X265.954480 Y38.531523 Z-0.125000
G01 X266.634871 Y39.707503 Z-0.125000
G01 X267.257512 Y40.934668 Z-0.125000
G01 X267.860026 Y42.272228 Z-0.125000
G01 X268.350559 Y43.523505 Z-0.125000
G01 X268.738904 Y44.736662 Z-0.125000
G01 X269.034855 Y45.959859 Z-0.125000
G01 X269.248205 Y47.241259 Z-0.125000
G01 X269.388748 Y48.629023 Z-0.125000
G01 X269.466276 Y50.171312 Z-0.125000
G01 X269.490584 Y51.916288 Z-0.125000
G01 X269.475039 Y53.534418 Z-0.125000
G01 X269.418780 Y54.899613 Z-0.125000
G01 X269.310226 Y56.065597 Z-0.125000
G01 X269.137797 Y57.086094 Z-0.125000
G01 X268.889914 Y58.014827 Z-0.125000
G01 X268.554997 Y58.905522 Z-0.125000
G01 X268.121465 Y59.811903 Z-0.125000
G01 X267.577738 Y60.787692 Z-0.125000
G01 X267.163608 Y61.406017 Z-0.125000
G01 X266.627689 Y62.070212 Z-0.125000
G01 X265.998320 Y62.754016 Z-0.125000
G01 X265.303835 Y63.431166 Z-0.125000
G01 X264.572571 Y64.075401 Z-0.125000
G01 X263.832864 Y64.660458 Z-0.125000
G01 X263.113052 Y65.160076 Z-0.125000
G01 X262.441469 Y65.547992 Z-0.125000
G01 X261.281062 Y66.104326 Z-0.125000
G01 X260.184643 Y66.554632 Z-0.125000
G01 X259.102587 Y66.908727 Z-0.125000
G01 X257.985267 Y67.176429 Z-0.125000
G01 X256.783056 Y67.367553 Z-0.125000
G01 X255.446327 Y67.491917 Z-0.125000
G01 X253.925453 Y67.559336 Z-0.125000
G01 X252.170809 Y67.579628 Z-0.125000
G01 X249.032220 Y67.518879 Z-0.125000
G01 X247.789068 Y67.426647 Z-0.125000
G01 X246.677136 Y67.278690 Z-0.125000
G01 X245.631769 Y67.064145 Z-0.125000
G01 X244.588311 Y66.772145 Z-0.125000
G01 X243.482106 Y66.391828 Z-0.125000
G01 X242.248499 Y65.912328 Z-0.125000
G01 X240.966066 Y65.343953 Z-0.125000
G01 X239.714902 Y64.689377 Z-0.125000
G01 X238.498826 Y63.953027 Z-0.125000
G01 X237.321656 Y63.139329 Z-0.125000
G01 X236.187210 Y62.252709 Z-0.125000
G01 X235.099305 Y61.297593 Z-0.125000
G01 X234.061760 Y60.278409 Z-0.125000
G01 X233.078391 Y59.199581 Z-0.125000
G01 X232.153019 Y58.065536 Z-0.125000
G01 X231.289459 Y56.880701 Z-0.125000
G01 X230.491530 Y55.649501 Z-0.125000
G01 X229.763050 Y54.376363 Z-0.125000
G01 X229.107838 Y53.065714 Z-0.125000
G01 X228.529709 Y51.721978 Z-0.125000
G01 X228.032484 Y50.349583 Z-0.125000
G01 X227.619979 Y48.952955 Z-0.125000
G01 X227.328558 Y47.684349 Z-0.125000
G01 X227.102001 Y46.364323 Z-0.125000
G01 X226.941494 Y45.019506 Z-0.125000
G01 X226.848219 Y43.676529 Z-0.125000
G01 X226.823361 Y42.362021 Z-0.125000
G01 X226.868103 Y41.102613 Z-0.125000
G01 X226.983628 Y39.924935 Z-0.125000
G01 X227.171121 Y38.855616 Z-0.125000
G01 X227.487958 Y37.630152 Z-0.125000
G01 X227.877939 Y36.476986 Z-0.125000
G01 X228.342585 Y35.394917 Z-0.125000
G01 X228.883417 Y34.382745 Z-0.125000
G01 X229.501958 Y33.439268 Z-0.125000
G01 X230.199727 Y32.563285 Z-0.125000
G01 X230.978247 Y31.753596 Z-0.125000
G01 X231.839039 Y31.008999 Z-0.125000
G01 X232.783623 Y30.328293 Z-0.125000
G01 X233.813521 Y29.710278 Z-0.125000
G01 X234.930255 Y29.153752 Z-0.125000
G01 X236.135346 Y28.657515 Z-0.125000
G01 X237.430314 Y28.220365 Z-0.125000
G01 X238.816681 Y27.841102 Z-0.125000
G01 X240.295969 Y27.518525 Z-0.125000
G01 X241.869698 Y27.251432 Z-0.125000
G01 X242.661212 Y27.184782 Z-0.125000
G01 X243.698461 Y27.171717 Z-0.125000
G01 X246.215670 Y27.284785 Z-0.125000
G01 X248.832338 Y27.547519 Z-0.125000
G01 X249.993910 Y27.721539 Z-0.125000
G01 X250.959475 Y27.916807 Z-0.125000
G01 X250.959475 Y27.916807 Z-0.125000
G00 Z5.000000

(End cutting path id: path3009)


(Footer)
M5
G00 X0.0000 Y0.0000
M2
(Using default footer. To add your own footer create file "footer" in the output dir.)
(end)
%