%
(Header)
(Generated by gcodetools from Inkscape.)
(Using default header. To add your own header create file "header" in the output dir.)
M3
(Header end.)
G21 (All units in mm)

(Start cutting path id: path3799)
(Change tool to Default tool)

G00 Z5.000000
G00 X56.338259 Y270.559465

G01 Z-0.125000 F100.0(Penetrate)
G02 X56.157019 Y271.670766 Z-0.125000 I49.912797 J8.710621 F400.000000
G02 X55.381139 Y276.868758 Z-0.125000 I1090.775903 J165.471906
G03 X54.592743 Y281.978024 Z-0.125000 I-349.895977 J-51.375949
G01 X54.552743 Y281.988676 Z-0.125000
G03 X48.842763 Y273.428193 Z-0.125000 I43.159184 J-34.972436
G03 X47.889685 Y269.660223 Z-0.125000 I6.971750 J-3.767970
G03 X47.992169 Y269.552635 Z-0.125000 I0.107715 J0.000000
G03 X52.210773 Y269.450150 Z-0.125000 I4.218603 J86.773476
G01 X56.531857 Y269.450150 Z-0.125000
G01 X56.338259 Y270.559465 Z-0.125000
G01 X56.338259 Y270.559465 Z-0.125000
G00 Z5.000000

(End cutting path id: path3799)


(Start cutting path id: path3801)
(Change tool to Default tool)

G00 Z5.000000
G00 X39.709878 Y257.930334

G01 Z-0.125000 F100.0(Penetrate)
G02 X44.508062 Y263.365812 Z-0.125000 I26.314762 J-18.393889 F400.000000
G02 X50.060866 Y267.276699 Z-0.125000 I18.881338 J-20.910870
G01 X52.172639 Y268.410659 Z-0.125000
G01 X49.345890 Y268.418420 Z-0.125000
G02 X46.716544 Y268.623035 Z-0.125000 I0.048251 J17.616143
G02 X46.519138 Y268.853120 Z-0.125000 I0.035383 J0.230084
G02 X46.615992 Y269.255072 Z-0.125000 I0.882495 J-0.000000
G02 X49.444213 Y274.570362 Z-0.125000 I166.605780 J-85.239458
G03 X52.347396 Y279.872295 Z-0.125000 I-644.992006 J356.624526
G03 X53.284592 Y281.652629 Z-0.125000 I-71.785207 J38.925687
G02 X54.359988 Y283.285037 Z-0.125000 I7.908312 J-4.039403
G02 X54.792587 Y283.457856 Z-0.125000 I0.375256 J-0.311490
G02 X55.142830 Y283.182558 Z-0.125000 I-0.050246 J-0.424370
G02 X55.573467 Y281.381618 Z-0.125000 I-7.151847 J-2.662092
G03 X55.851919 Y279.324834 Z-0.125000 I48.015493 J5.453194
G03 X57.330905 Y270.210509 Z-0.125000 I944.740703 J148.626346
G02 X58.846480 Y261.101746 Z-0.125000 I-5556.057145 J-929.133368
G02 X58.854050 Y261.009672 Z-0.125000 I-0.556188 J-0.092074
G01 X58.809522 Y260.961487 Z-0.125000
G02 X57.680953 Y260.916959 Z-0.125000 I-1.128569 J14.279767
G03 X56.841918 Y260.521329 Z-0.125000 I-0.000000 J-1.087511
G03 X56.203266 Y259.124989 Z-0.125000 I2.298835 J-1.895653
G03 X55.936928 Y257.340730 Z-0.125000 I44.050596 J-7.487477
G03 X55.960205 Y257.236234 Z-0.125000 I0.156044 J-0.020082
G03 X56.064847 Y257.178580 Z-0.125000 I0.104975 J0.066740
G03 X74.454833 Y257.158162 Z-0.125000 I15.699384 J5858.492054
G03 X92.843480 Y257.195449 Z-0.125000 I-2.692267 J5862.137468
G03 X92.970314 Y257.253224 Z-0.125000 I-0.000609 J0.169445
G03 X93.013791 Y257.345012 Z-0.125000 I-0.139603 J0.122316
G03 X93.282418 Y259.124966 Z-0.125000 I-57.507013 J9.589079
G01 X93.524632 Y260.916936 Z-0.125000
G01 X92.293251 Y260.916936 Z-0.125000
G02 X91.358533 Y261.213610 Z-0.125000 I0.000021 J1.620897
G02 X91.061871 Y261.786141 Z-0.125000 I0.404137 J0.572532
G02 X91.547933 Y267.789125 Z-0.125000 I37.312126 J0.000000
G02 X95.719091 Y290.356482 Z-0.125000 I534.734757 J-87.166636
G01 X95.913228 Y291.295134 Z-0.125000
G01 X91.461847 Y291.295134 Z-0.125000
G01 X87.010469 Y291.295134 Z-0.125000
G01 X86.784006 Y289.844490 Z-0.125000
G02 X86.531653 Y288.399516 Z-0.125000 I-40.183767 J6.273237
G02 X86.388161 Y287.796523 Z-0.125000 I-7.130058 J1.378145
G03 X86.552680 Y287.451580 Z-0.125000 I0.278374 J-0.078935
G03 X87.783735 Y287.199199 Z-0.125000 I1.231055 J2.876214
G02 X89.153393 Y287.013400 Z-0.125000 I-0.000000 J-5.141259
G02 X89.327409 Y286.772539 Z-0.125000 I-0.063301 J-0.229025
G02 X89.282005 Y286.348507 Z-0.125000 I-3.751361 J0.187234
G02 X87.173952 Y273.716747 Z-0.125000 I-3339.792596 J550.870101
G01 X85.041777 Y261.087616 Z-0.125000
G01 X81.541733 Y260.990342 Z-0.125000
G02 X78.292685 Y261.151144 Z-0.125000 I-0.585619 J21.071759
G02 X78.041687 Y261.436141 Z-0.125000 I0.036300 J0.284996
G02 X78.085419 Y261.975528 Z-0.125000 I3.348261 J-0.000000
G02 X80.440144 Y276.130154 Z-0.125000 I2323.309727 J-379.226351
G03 X82.797671 Y290.284539 Z-0.125000 I-2480.249520 J420.379049
G03 X82.838598 Y290.788115 Z-0.125000 I-3.077564 J0.503576
G03 X82.599624 Y291.056159 Z-0.125000 I-0.269812 J0.000000
G03 X78.431588 Y291.295134 Z-0.125000 I-4.168036 J-36.228523
G01 X74.024578 Y291.295134 Z-0.125000
G01 X73.693497 Y289.247166 Z-0.125000
G01 X73.362420 Y287.199199 Z-0.125000
G01 X74.845464 Y287.199199 Z-0.125000
G02 X76.076920 Y286.947615 Z-0.125000 I0.000000 J-3.139667
G02 X76.328505 Y286.566841 Z-0.125000 I-0.162359 J-0.380774
G02 X76.278251 Y285.938712 Z-0.125000 I-3.950656 J0.000000
G02 X74.272688 Y273.801161 Z-0.125000 I-1486.518636 J239.392218
G03 X72.248313 Y261.665189 Z-0.125000 I2373.268091 J-402.116565
G03 X72.216868 Y261.279584 Z-0.125000 I2.348645 J-0.385606
G02 X72.034350 Y261.079595 Z-0.125000 I-0.200824 J0.000000
G02 X69.047482 Y260.989473 Z-0.125000 I-2.229798 J24.359884
G01 X65.878095 Y261.087616 Z-0.125000
G01 X62.794369 Y274.482387 Z-0.125000
G01 X59.710639 Y287.877158 Z-0.125000
G01 X56.108296 Y287.879557 Z-0.125000
G01 X52.505946 Y287.881956 Z-0.125000
G01 X50.126308 Y283.871353 Z-0.125000
G02 X47.740795 Y279.864249 Z-0.125000 I-1368.268810 J811.845329
G02 X40.965445 Y268.534413 Z-0.125000 I-10954.174705 J6543.008931
G03 X34.233251 Y257.194518 Z-0.125000 I1521.694646 J-911.057949
G03 X34.184226 Y257.014596 Z-0.125000 I0.305649 J-0.179922
G03 X34.277031 Y256.913925 Z-0.125000 I0.101005 J0.000000
G03 X36.559349 Y256.821119 Z-0.125000 I2.282319 J28.017467
G03 X38.740244 Y257.193854 Z-0.125000 I0.000000 J6.566640
G03 X39.709878 Y257.930433 Z-0.125000 I-0.660577 J1.876087
G01 X39.709878 Y257.930334 Z-0.125000
G00 Z5.000000

(End cutting path id: path3801)


(Start cutting path id: path3803)
(Change tool to Default tool)

G00 Z5.000000
G00 X33.226183 Y256.906350

G01 Z-0.125000 F100.0(Penetrate)
G02 X33.497273 Y257.627768 Z-0.125000 I2.277115 J-0.444036 F400.000000
G02 X42.750579 Y273.300100 Z-0.125000 I1118.762698 J-649.975467
G01 X52.125226 Y288.925862 Z-0.125000
G01 X56.253411 Y288.830519 Z-0.125000
G01 X60.381600 Y288.735176 Z-0.125000
G01 X63.496289 Y275.252724 Z-0.125000
G01 X66.610981 Y261.770272 Z-0.125000
G01 X68.989093 Y261.671638 Z-0.125000
G01 X71.367202 Y261.573007 Z-0.125000
G01 X73.445830 Y274.044774 Z-0.125000
G01 X75.524454 Y286.516545 Z-0.125000
G01 X74.041980 Y286.516545 Z-0.125000
G02 X73.136240 Y287.168490 Z-0.125000 I-0.000000 J0.955140
G02 X72.937314 Y289.816533 Z-0.125000 I5.128500 J1.716756
G01 X73.315125 Y291.977791 Z-0.125000
G01 X78.590815 Y291.977791 Z-0.125000
G02 X83.658483 Y291.772952 Z-0.125000 I0.000000 J-62.788880
G02 X83.859924 Y291.551131 Z-0.125000 I-0.017688 J-0.218439
G02 X83.821932 Y291.127350 Z-0.125000 I-2.881176 J0.044700
G02 X81.357126 Y276.362039 Z-0.125000 I-3514.806864 J579.146136
G01 X78.860907 Y261.599607 Z-0.125000
G01 X81.528497 Y261.599607 Z-0.125000
G03 X83.941327 Y261.919626 Z-0.125000 I-0.000000 J9.255951
G03 X84.372752 Y262.367595 Z-0.125000 I-0.157541 J0.583454
G03 X87.779714 Y279.591609 Z-0.125000 I-277.637398 J63.866471
G03 X88.320779 Y286.156580 Z-0.125000 I-39.557265 J6.564971
G03 X88.163289 Y286.359055 Z-0.125000 I-0.208899 J0.000000
G03 X86.903061 Y286.516545 Z-0.125000 I-1.260228 J-4.963407
G01 X85.485340 Y286.516545 Z-0.125000
G01 X85.715213 Y288.464919 Z-0.125000
G02 X86.068974 Y290.928783 Z-0.125000 I49.115352 J-5.794644
G02 X86.565001 Y291.664239 Z-0.125000 I1.059231 J-0.179397
G02 X87.511473 Y291.941684 Z-0.125000 I0.981030 J-1.593559
G02 X91.421430 Y291.977791 Z-0.125000 I3.909957 J-211.683511
G02 X96.432104 Y291.855165 Z-0.125000 I0.000000 J-102.432802
G02 X96.648477 Y291.721795 Z-0.125000 I-0.012886 J-0.263106
G02 X96.796931 Y290.890335 Z-0.125000 I-1.107538 J-0.626731
G02 X91.919310 Y262.708923 Z-0.125000 I-1440.189827 J234.754364
G03 X92.163781 Y261.972734 Z-0.125000 I0.793155 J-0.145298
G03 X93.113965 Y261.599607 Z-0.125000 I0.950184 J1.023277
G01 X94.511840 Y261.599607 Z-0.125000
G01 X94.274657 Y259.807637 Z-0.125000
G02 X93.999939 Y258.023123 Z-0.125000 I-42.308659 J5.599834
G02 X93.809945 Y257.162345 Z-0.125000 I-10.019376 J1.760162
G01 X93.582417 Y256.309027 Z-0.125000
G01 X74.286220 Y256.220829 Z-0.125000
G01 X54.990021 Y256.132635 Z-0.125000
G01 X55.220232 Y258.083871 Z-0.125000
G02 X56.082016 Y261.096778 Z-0.125000 I9.697704 J-1.144138
G02 X56.874281 Y261.599607 Z-0.125000 I0.792265 J-0.372738
G01 X57.903949 Y261.599607 Z-0.125000
G01 X57.665745 Y263.220917 Z-0.125000
G03 X57.401797 Y264.837611 Z-0.125000 I-50.775470 J-7.459886
G03 X57.075906 Y266.503418 Z-0.125000 I-54.243313 J-9.747158
G01 X56.724274 Y268.164612 Z-0.125000
G01 X55.043525 Y268.003731 Z-0.125000
G03 X48.938967 Y265.779239 Z-0.125000 I1.231809 J-12.868845
G03 X41.372169 Y258.581071 Z-0.125000 I18.955238 J-27.502202
G01 X39.502137 Y256.138361 Z-0.125000
G01 X36.289285 Y256.138361 Z-0.125000
G02 X33.495129 Y256.483302 Z-0.125000 I-0.000000 J11.489360
G02 X33.226183 Y256.906350 Z-0.125000 I0.088588 J0.353331
G01 X33.226183 Y256.906350 Z-0.125000
G00 Z5.000000

(End cutting path id: path3803)


(Start cutting path id: path3811)
(Change tool to Default tool)

G00 Z5.000000
G00 X104.767327 Y255.794129

G01 Z-0.125000 F100.0(Penetrate)
G02 X98.279736 Y259.011640 Z-0.125000 I1.467143 J11.107602 F400.000000
G02 X95.584493 Y265.052195 Z-0.125000 I6.636781 J6.582849
G02 X100.158920 Y277.082879 Z-0.125000 I15.706964 J0.912750
G02 X111.798501 Y281.287500 Z-0.125000 I10.292265 J-10.278764
G02 X117.934407 Y278.310383 Z-0.125000 I-0.899055 J-9.664652
G02 X120.781386 Y271.837939 Z-0.125000 I-7.562092 J-7.188634
G02 X120.854724 Y269.199430 Z-0.125000 I-32.195523 J-2.215151
G02 X120.730457 Y267.956287 Z-0.125000 I-7.228970 J0.094842
G01 X120.497550 Y266.719527 Z-0.125000
G01 X111.947168 Y266.719527 Z-0.125000
G01 X103.396782 Y266.719527 Z-0.125000
G01 X103.396782 Y265.916681 Z-0.125000
G03 X104.058369 Y263.970074 Z-0.125000 I3.194575 J0.000000
G03 X106.313713 Y262.121074 Z-0.125000 I5.096802 J3.916904
G03 X109.622139 Y261.382173 Z-0.125000 I3.176174 J6.445117
G03 X115.513155 Y262.290433 Z-0.125000 I-0.408885 J22.210869
G02 X118.107440 Y262.934137 Z-0.125000 I8.553332 J-28.922364
G02 X118.347897 Y262.861778 Z-0.125000 I0.052593 J-0.260940
G02 X118.947230 Y260.717436 Z-0.125000 I-1.595805 J-1.601945
G02 X116.974497 Y257.303499 Z-0.125000 I-6.884025 J1.700975
G02 X115.860752 Y256.699005 Z-0.125000 I-1.658281 J1.727033
G02 X110.562348 Y255.805917 Z-0.125000 I-9.790032 J41.917739
G02 X107.337244 Y255.501383 Z-0.125000 I-16.272289 J155.098523
G02 X106.994464 Y255.506375 Z-0.125000 I-0.146086 J1.740005
G02 X106.652154 Y255.547890 Z-0.125000 I2.489294 J21.957743
G02 X104.767327 Y255.794129 Z-0.125000 I85.893566 J664.804433
G01 X104.767327 Y255.794129 Z-0.125000
G00 Z5.000000

(End cutting path id: path3811)


(Start cutting path id: path3809)
(Change tool to Default tool)

G00 Z5.000000
G00 X113.262024 Y257.022196

G01 Z-0.125000 F100.0(Penetrate)
G03 X115.858318 Y257.658281 Z-0.125000 I-7.142037 J34.768160 F400.000000
G03 X116.295461 Y257.887676 Z-0.125000 I-0.332159 J1.164191
G03 X116.576345 Y258.275891 Z-0.125000 I-0.601561 J0.730966
G03 X116.913345 Y259.478470 Z-0.125000 I-5.994701 J2.328408
G02 X117.160984 Y260.741059 Z-0.125000 I35.777608 J-6.361702
G02 X117.310846 Y261.330844 Z-0.125000 I7.945897 J-1.705091
G03 X117.137793 Y261.565252 Z-0.125000 I-0.175363 J0.051620
G03 X115.665053 Y261.351643 Z-0.125000 I-0.060263 J-4.768269
G02 X109.649026 Y260.463899 Z-0.125000 I-5.863552 J18.907417
G02 X105.628441 Y261.428947 Z-0.125000 I0.070491 J9.151492
G02 X103.470604 Y263.355919 Z-0.125000 I2.464400 J4.931318
G02 X102.711510 Y265.916695 Z-0.125000 I3.939797 J2.560777
G01 X102.711510 Y267.402197 Z-0.125000
G01 X111.237940 Y267.402197 Z-0.125000
G01 X119.764368 Y267.402197 Z-0.125000
G01 X119.980180 Y269.194167 Z-0.125000
G03 X119.416096 Y274.925089 Z-0.125000 I-13.219465 J1.592053
G03 X116.904446 Y278.598799 Z-0.125000 I-7.557919 J-2.471773
G03 X114.314585 Y279.871903 Z-0.125000 I-4.006067 J-4.878683
G03 X109.489884 Y280.305708 Z-0.125000 I-3.990377 J-17.333600
G03 X105.034579 Y279.406337 Z-0.125000 I0.702802 J-14.966578
G03 X101.512280 Y277.380511 Z-0.125000 I4.122401 J-11.242626
G03 X97.812937 Y272.499369 Z-0.125000 I8.581369 J-10.346097
G03 X96.388386 Y265.866220 Z-0.125000 I15.069205 J-6.705843
G03 X96.679654 Y263.214468 Z-0.125000 I11.744817 J-0.051824
G03 X97.434361 Y261.258296 Z-0.125000 I7.075557 J1.606134
G03 X99.905292 Y258.497988 Z-0.125000 I7.497545 J4.225440
G03 X103.537383 Y256.866847 Z-0.125000 I5.805959 J8.068845
G03 X107.831050 Y256.426300 Z-0.125000 I4.001383 J17.854565
G03 X113.262024 Y257.022211 Z-0.125000 I-0.468329 J29.314443
G01 X113.262024 Y257.022196 Z-0.125000
G00 Z5.000000

(End cutting path id: path3809)


(Start cutting path id: path3825)
(Change tool to Default tool)

G00 Z5.000000
G00 X126.058126 Y249.437677

G01 Z-0.125000 F100.0(Penetrate)
G02 X124.188909 Y251.366135 Z-0.125000 I1.036326 J2.874620 F400.000000
G02 X124.628626 Y253.827497 Z-0.125000 I2.518320 J0.820066
G02 X126.438706 Y254.917086 Z-0.125000 I2.349940 J-1.855546
G02 X131.783792 Y255.139080 Z-0.125000 I3.461422 J-18.883358
G02 X136.918868 Y253.887645 Z-0.125000 I-1.848084 J-18.744554
G02 X137.660423 Y252.793161 Z-0.125000 I-0.436912 J-1.094483
G02 X137.031328 Y251.204854 Z-0.125000 I-2.319586 J0.000000
G02 X134.732195 Y249.676550 Z-0.125000 I-4.414762 J4.147907
G02 X130.137197 Y248.782591 Z-0.125000 I-4.988179 J13.383251
G02 X126.058126 Y249.437677 Z-0.125000 I-0.306243 J11.120344
G01 X126.058126 Y249.437677 Z-0.125000
G00 Z5.000000

(End cutting path id: path3825)


(Start cutting path id: path3829)
(Change tool to Default tool)

G00 Z5.000000
G00 X123.954967 Y244.577376

G01 Z-0.125000 F100.0(Penetrate)
G02 X118.919347 Y246.887960 Z-0.125000 I1.666714 J10.274923 F400.000000
G02 X117.444873 Y250.055899 Z-0.125000 I2.665957 J3.167940
G02 X118.366227 Y253.204462 Z-0.125000 I5.840503 J-0.000000
G02 X121.042558 Y255.676733 Z-0.125000 I6.067555 J-3.883614
G03 X121.811264 Y256.512306 Z-0.125000 I-0.808367 J1.515060
G03 X121.697178 Y257.196088 Z-0.125000 I-0.587935 J0.253314
G02 X120.898934 Y259.300723 Z-0.125000 I2.274640 J2.066418
G02 X121.754644 Y261.817014 Z-0.125000 I4.284225 J-0.053282
G02 X122.567407 Y262.646703 Z-0.125000 I3.532484 J-2.647483
G02 X123.867808 Y263.469854 Z-0.125000 I4.775453 J-6.105436
G01 X125.268892 Y264.172570 Z-0.125000
G01 X124.068875 Y264.956197 Z-0.125000
G02 X122.234993 Y267.205770 Z-0.125000 I2.614395 J4.003577
G02 X121.634629 Y271.129623 Z-0.125000 I8.320742 J3.280961
G02 X125.859415 Y278.585072 Z-0.125000 I9.956905 J-0.717532
G02 X136.038342 Y281.231662 Z-0.125000 I8.634566 J-12.311354
G03 X138.522119 Y281.058282 Z-0.125000 I3.852815 J37.316448
G03 X148.967422 Y280.759527 Z-0.125000 I24.113305 J660.320537
G01 X159.417835 Y280.543306 Z-0.125000
G01 X159.305987 Y279.520647 Z-0.125000
G01 X159.194140 Y278.497987 Z-0.125000
G01 X159.991259 Y279.224726 Z-0.125000
G02 X162.198710 Y280.603668 Z-0.125000 I4.873873 J-5.345892
G02 X165.227167 Y281.300785 Z-0.125000 I3.801286 J-9.587010
G02 X167.240597 Y281.263041 Z-0.125000 I0.806007 J-10.725619
G02 X167.890942 Y280.999870 Z-0.125000 I-0.146560 J-1.297322
G02 X168.162621 Y280.433485 Z-0.125000 I-0.425856 J-0.552622
G02 X167.832587 Y278.042110 Z-0.125000 I-10.301466 J0.203247
G01 X167.181765 Y275.540917 Z-0.125000
G01 X168.553712 Y276.935166 Z-0.125000
G02 X175.055121 Y280.758741 Z-0.125000 I10.384827 J-10.218706
G02 X183.299857 Y281.013243 Z-0.125000 I4.644737 J-16.795178
G02 X189.259152 Y276.719806 Z-0.125000 I-1.876474 J-8.887019
G02 X190.790682 Y268.235331 Z-0.125000 I-10.796695 J-6.329373
G02 X184.719965 Y258.746148 Z-0.125000 I-14.381308 J2.513993
G02 X172.866313 Y255.825109 Z-0.125000 I-9.760763 J14.097693
G02 X166.911354 Y258.409855 Z-0.125000 I1.398827 J11.374884
G02 X164.021887 Y263.224315 Z-0.125000 I5.501585 J6.576162
G02 X163.896328 Y267.464209 Z-0.125000 I11.765850 J2.470235
G02 X165.387501 Y272.401035 Z-0.125000 I17.578624 J-2.616020
G01 X166.372304 Y274.498597 Z-0.125000
G01 X165.443849 Y274.683580 Z-0.125000
G03 X161.544557 Y274.119609 Z-0.125000 I-1.153243 J-5.788311
G03 X158.614653 Y271.093978 Z-0.125000 I3.138121 J-5.970255
G03 X158.063343 Y269.569323 Z-0.125000 I6.969944 J-3.382312
G03 X157.260229 Y265.610210 Z-0.125000 I46.697252 J-11.533644
G01 X156.620688 Y261.599607 Z-0.125000
G01 X158.137074 Y261.599607 Z-0.125000
G01 X159.653456 Y261.599607 Z-0.125000
G01 X159.415165 Y259.873646 Z-0.125000
G02 X159.139216 Y258.155299 Z-0.125000 I-39.119968 J5.400935
G02 X158.930341 Y257.228354 Z-0.125000 I-11.579284 J2.122236
G01 X158.683806 Y256.309027 Z-0.125000
G01 X152.275911 Y256.216133 Z-0.125000
G02 X146.016192 Y256.333586 Z-0.125000 I-1.364662 J94.135563
G02 X145.719849 Y256.557461 Z-0.125000 I0.017227 J0.330876
G02 X145.669139 Y256.998718 Z-0.125000 I0.987836 J0.337065
G02 X145.985993 Y259.210313 Z-0.125000 I26.278043 J-2.636339
G01 X146.400295 Y261.428944 Z-0.125000
G01 X147.759666 Y261.599607 Z-0.125000
G01 X149.119038 Y261.770272 Z-0.125000
G01 X150.221107 Y268.255502 Z-0.125000
G03 X151.299593 Y274.743316 Z-0.125000 I-900.357599 J153.002260
G03 X151.344529 Y275.167392 Z-0.125000 I-3.790249 J0.616046
G03 X151.155067 Y275.393522 Z-0.125000 I-0.216729 J0.010850
G03 X147.975947 Y275.594052 Z-0.125000 I-3.179120 J-25.099992
G01 X144.586015 Y275.594052 Z-0.125000
G01 X144.932152 Y274.235584 Z-0.125000
G02 X143.835082 Y267.946381 Z-0.125000 I-7.548937 J-1.923471
G02 X137.673041 Y263.507756 Z-0.125000 I-9.129405 J6.177520
G02 X135.710475 Y263.114364 Z-0.125000 I-3.608500 J12.910036
G02 X133.285451 Y262.964919 Z-0.125000 I-2.425024 J19.600510
G03 X129.502315 Y262.240055 Z-0.125000 I0.000000 J-10.234708
G03 X129.432147 Y261.432026 Z-0.125000 I0.167728 J-0.421626
G03 X129.795805 Y261.299683 Z-0.125000 I0.503534 J0.817828
G03 X134.314715 Y260.713251 Z-0.125000 I19.394860 J131.748197
G02 X142.296120 Y258.181895 Z-0.125000 I-2.411387 J-21.451561
G02 X144.105318 Y255.335315 Z-0.125000 I-1.686346 J-3.070014
G02 X141.711109 Y248.923119 Z-0.125000 I-8.353652 J-0.533960
G02 X133.427883 Y244.510371 Z-0.125000 I-11.204899 J11.052211
G02 X129.237190 Y244.132931 Z-0.125000 I-4.036867 J21.367870
G02 X123.954967 Y244.577376 Z-0.125000 I0.244146 J34.513467
G01 X123.954967 Y244.577376 Z-0.125000
G00 Z5.000000

(End cutting path id: path3829)


(Start cutting path id: path3827)
(Change tool to Default tool)

G00 Z5.000000
G00 X135.324792 Y245.889961

G01 Z-0.125000 F100.0(Penetrate)
G03 X141.860702 Y250.219476 Z-0.125000 I-4.078408 J13.254953 F400.000000
G03 X143.388445 Y255.479429 Z-0.125000 I-5.181035 J4.356662
G03 X141.805891 Y257.713358 Z-0.125000 I-2.923652 J-0.393646
G03 X135.060823 Y259.729794 Z-0.125000 I-8.868337 J-17.375487
G02 X128.968754 Y260.959691 Z-0.125000 I3.756918 J34.312129
G02 X128.409238 Y261.710051 Z-0.125000 I0.223392 J0.750361
G02 X129.135572 Y262.817634 Z-0.125000 I1.207641 J0.000000
G02 X133.038309 Y263.721647 Z-0.125000 I4.403084 J-10.132363
G03 X136.407674 Y264.132169 Z-0.125000 I-1.013205 J22.348218
G03 X138.610194 Y264.834765 Z-0.125000 I-2.033076 J10.176908
G03 X141.796472 Y267.031024 Z-0.125000 I-4.337334 J9.701912
G03 X143.643213 Y269.879830 Z-0.125000 I-5.790489 J5.776667
G03 X143.976611 Y271.579357 Z-0.125000 I-4.714124 J1.807241
G03 X143.765155 Y275.594052 Z-0.125000 I-27.197722 J0.580399
G01 X143.656559 Y276.447371 Z-0.125000
G01 X147.612372 Y276.510715 Z-0.125000
G02 X151.537147 Y276.460990 Z-0.125000 I1.095696 J-68.432564
G02 X151.963445 Y276.330706 Z-0.125000 I-0.036488 J-0.881969
G02 X152.132647 Y275.984435 Z-0.125000 I-0.188866 J-0.306762
G02 X151.099670 Y268.502153 Z-0.125000 I-137.537167 J15.175438
G01 X149.840635 Y260.916953 Z-0.125000
G01 X148.567660 Y260.916953 Z-0.125000
G03 X147.501625 Y260.410683 Z-0.125000 I-0.000000 J-1.375492
G03 X146.758627 Y258.698320 Z-0.125000 I2.666942 J-2.174567
G01 X146.527304 Y256.991683 Z-0.125000
G01 X152.282859 Y257.101038 Z-0.125000
G03 X158.024277 Y257.239949 Z-0.125000 I-10.507788 J553.026600
G03 X158.089767 Y257.271703 Z-0.125000 I-0.002610 J0.088792
G03 X158.121590 Y257.341630 Z-0.125000 I-0.110440 J0.092463
G03 X158.383335 Y259.124981 Z-0.125000 I-78.222929 J12.391793
G01 X158.625549 Y260.916953 Z-0.125000
G01 X157.222848 Y260.916953 Z-0.125000
G02 X156.151555 Y261.244475 Z-0.125000 I0.000000 J1.915813
G02 X155.831211 Y261.855605 Z-0.125000 I0.406428 J0.602567
G02 X156.642014 Y268.701123 Z-0.125000 I32.542785 J-0.383685
G02 X158.200478 Y272.255124 Z-0.125000 I10.056061 J-2.290979
G02 X160.984569 Y274.667133 Z-0.125000 I6.030517 J-4.148007
G02 X164.947403 Y275.594052 Z-0.125000 I3.962835 J-8.007655
G01 X166.369860 Y275.594052 Z-0.125000
G01 X166.889575 Y277.898015 Z-0.125000
G03 X167.321727 Y280.176823 Z-0.125000 I-32.849793 J7.409995
G03 X167.266912 Y280.345503 Z-0.125000 I-0.194613 J0.030004
G03 X167.097392 Y280.421744 Z-0.125000 I-0.183999 J-0.182536
G03 X165.400844 Y280.449915 Z-0.125000 I-1.206563 J-21.563214
G03 X162.367673 Y279.639440 Z-0.125000 I0.150791 J-6.645328
G03 X159.657374 Y277.315815 Z-0.125000 I4.116800 J-7.544348
G02 X158.418599 Y275.923829 Z-0.125000 I-9.959922 J7.616461
G02 X158.013850 Y275.724712 Z-0.125000 I-0.511044 J0.527880
G02 X157.561382 Y275.684583 Z-0.125000 I-0.579562 J3.963795
G01 X157.537399 Y275.709590 Z-0.125000
G02 X157.546498 Y275.763849 Z-0.125000 I0.299233 J-0.022290
G02 X158.047287 Y277.642022 Z-0.125000 I359.338551 J-94.806808
G03 X158.525432 Y279.523212 Z-0.125000 I-65.585704 J17.671359
G03 X158.557175 Y279.775321 Z-0.125000 I-1.132195 J0.270610
G03 X158.432909 Y279.905217 Z-0.125000 I-0.127880 J0.002051
G03 X148.881765 Y280.048844 Z-0.125000 I-10.204995 J-360.983818
G02 X139.208039 Y280.168939 Z-0.125000 I0.824758 J456.108513
G02 X136.859900 Y280.325606 Z-0.125000 I0.621370 J26.988425
G03 X132.034787 Y280.321586 Z-0.125000 I-2.394532 J-21.636450
G03 X128.615675 Y279.399301 Z-0.125000 I1.309258 J-11.652534
G03 X123.096938 Y274.254153 Z-0.125000 I4.622870 J-10.490837
G03 X122.739295 Y268.250890 Z-0.125000 I6.442978 J-3.396125
G03 X124.273136 Y265.896615 Z-0.125000 I6.253326 J2.397328
G03 X126.208509 Y264.805123 Z-0.125000 I2.951166 J2.971251
G02 X126.509025 Y264.135089 Z-0.125000 I-0.113320 J-0.453234
G02 X125.335626 Y263.138931 Z-0.125000 I-1.818169 J0.952498
G03 X122.114482 Y259.764238 Z-0.125000 I1.559474 J-4.713155
G03 X123.614359 Y256.991042 Z-0.125000 I2.183415 J-0.611305
G02 X123.885619 Y256.342844 Z-0.125000 I-0.138780 J-0.438936
G02 X122.841397 Y255.476462 Z-0.125000 I-1.528910 J0.780273
G03 X118.957885 Y252.689949 Z-0.125000 I2.045966 J-6.950871
G03 X118.446895 Y249.219291 Z-0.125000 I3.194020 J-2.243206
G03 X120.815562 Y246.735419 Z-0.125000 I3.810455 J1.262383
G03 X128.801442 Y245.234229 Z-0.125000 I8.081200 J20.997710
G03 X133.100654 Y245.440638 Z-0.125000 I0.174646 J41.238794
G03 X135.324792 Y245.889963 Z-0.125000 I-1.146249 J11.403216
G01 X135.324792 Y245.889961 Z-0.125000
G00 Z5.000000

(End cutting path id: path3827)


(Start cutting path id: path3823)
(Change tool to Default tool)

G00 Z5.000000
G00 X134.707826 Y250.624241

G01 Z-0.125000 F100.0(Penetrate)
G03 X136.536317 Y251.909533 Z-0.125000 I-2.295120 J5.208380 F400.000000
G03 X136.975148 Y253.007453 Z-0.125000 I-1.154039 J1.097920
G03 X136.674364 Y253.389169 Z-0.125000 I-0.392605 J0.000000
G03 X131.710795 Y254.273778 Z-0.125000 I-9.882570 J-41.083729
G03 X126.823677 Y254.059739 Z-0.125000 I-1.782276 J-15.206006
G03 X125.133070 Y252.911534 Z-0.125000 I0.541901 J-2.616610
G03 X125.245904 Y251.449737 Z-0.125000 I1.000445 J-0.658030
G03 X127.895283 Y249.861188 Z-0.125000 I3.940382 J3.568174
G03 X131.084552 Y249.647557 Z-0.125000 I2.186919 J8.735316
G03 X134.707826 Y250.624241 Z-0.125000 I-1.381532 J12.334267
G01 X134.707826 Y250.624241 Z-0.125000
G00 Z5.000000

(End cutting path id: path3823)


(Start cutting path id: path3821)
(Change tool to Default tool)

G00 Z5.000000
G00 X130.617497 Y267.746599

G01 Z-0.125000 F100.0(Penetrate)
G02 X128.628210 Y269.143839 Z-0.125000 I1.165595 J3.774207 F400.000000
G02 X127.927242 Y271.317302 Z-0.125000 I2.784244 J2.097719
G02 X129.659585 Y274.965362 Z-0.125000 I4.933071 J-0.107206
G02 X134.146347 Y276.618035 Z-0.125000 I4.486762 J-5.264111
G02 X138.060752 Y275.305185 Z-0.125000 I-0.000000 J-6.492037
G02 X139.373605 Y272.667295 Z-0.125000 I-1.993705 J-2.637890
G02 X138.702809 Y270.259274 Z-0.125000 I-4.657545 J0.000000
G02 X136.771830 Y268.359763 Z-0.125000 I-4.681110 J2.827419
G02 X133.869119 Y267.419959 Z-0.125000 I-3.615491 J6.214323
G02 X130.617497 Y267.746599 Z-0.125000 I-0.817735 J8.207542
G01 X130.617497 Y267.746599 Z-0.125000
G00 Z5.000000

(End cutting path id: path3821)


(Start cutting path id: path3819)
(Change tool to Default tool)

G00 Z5.000000
G00 X136.535900 Y269.317680

G01 Z-0.125000 F100.0(Penetrate)
G03 X137.772102 Y273.301064 Z-0.125000 I-2.075925 J2.827755 F400.000000
G03 X134.293515 Y275.744529 Z-0.125000 I-3.440748 J-1.200507
G03 X131.192675 Y275.032130 Z-0.125000 I0.077289 J-7.441082
G03 X129.423279 Y273.444181 Z-0.125000 I1.774583 J-3.757117
G03 X128.923613 Y270.728539 Z-0.125000 I3.279283 J-2.007163
G03 X130.293740 Y268.801224 Z-0.125000 I2.771526 J0.519607
G03 X133.342583 Y268.123334 Z-0.125000 I2.614982 J4.565910
G03 X136.535900 Y269.317680 Z-0.125000 I-0.516980 J6.248399
G01 X136.535900 Y269.317680 Z-0.125000
G00 Z5.000000

(End cutting path id: path3819)


(Start cutting path id: path3805)
(Change tool to Default tool)

G00 Z5.000000
G00 X113.333237 Y272.858042

G01 Z-0.125000 F100.0(Penetrate)
G03 X113.126363 Y273.797461 Z-0.125000 I-2.236392 J0.000000 F400.000000
G03 X112.358947 Y274.962899 Z-0.125000 I-4.270849 J-1.976881
G03 X111.254043 Y275.756552 Z-0.125000 I-2.354246 J-2.111586
G03 X109.832951 Y276.049154 Z-0.125000 I-1.421092 J-3.304630
G03 X107.226599 Y275.394303 Z-0.125000 I-0.000000 J-5.514147
G03 X105.196787 Y273.562485 Z-0.125000 I2.697951 J-5.030075
G03 X104.492827 Y272.400264 Z-0.125000 I11.221831 J-7.591404
G03 X104.424692 Y272.130297 Z-0.125000 I0.500775 J-0.269967
G03 X104.565377 Y271.980127 Z-0.125000 I0.150490 J0.000000
G03 X108.878963 Y271.839445 Z-0.125000 I4.313587 J66.061212
G01 X113.333237 Y271.839445 Z-0.125000
G01 X113.333237 Y272.858042 Z-0.125000
G01 X113.333237 Y272.858042 Z-0.125000
G00 Z5.000000

(End cutting path id: path3805)


(Start cutting path id: path3807)
(Change tool to Default tool)

G00 Z5.000000
G00 X103.396782 Y271.682379

G01 Z-0.125000 F100.0(Penetrate)
G02 X103.942431 Y273.564585 Z-0.125000 I3.519143 J0.000000 F400.000000
G02 X106.022381 Y275.830275 Z-0.125000 I7.324115 J-4.636124
G02 X107.382009 Y276.496984 Z-0.125000 I2.377854 J-3.129477
G02 X109.595619 Y276.788699 Z-0.125000 I2.213609 J-8.252864
G02 X111.796447 Y276.507561 Z-0.125000 I0.000000 J-8.754913
G02 X112.795528 Y275.957610 Z-0.125000 I-0.581472 J-2.238822
G02 X114.168864 Y273.821087 Z-0.125000 I-3.545936 J-3.788938
G02 X114.184484 Y271.822662 Z-0.125000 I-3.045730 J-1.023081
G02 X113.749062 Y271.462252 Z-0.125000 I-0.498277 J0.158756
G02 X108.684555 Y271.156789 Z-0.125000 I-5.064507 J41.831431
G02 X103.646549 Y271.406556 Z-0.125000 I0.000000 J50.935167
G02 X103.396782 Y271.682379 Z-0.125000 I0.027416 J0.275823
G01 X103.396782 Y271.682379 Z-0.125000
G00 Z5.000000

(End cutting path id: path3807)


(Start cutting path id: path3815)
(Change tool to Default tool)

G00 Z5.000000
G00 X173.498370 Y261.419492

G01 Z-0.125000 F100.0(Penetrate)
G02 X172.147278 Y262.583066 Z-0.125000 I1.962466 J3.644934 F400.000000
G02 X171.217803 Y264.464916 Z-0.125000 I4.591232 J3.438147
G02 X171.339391 Y270.315991 Z-0.125000 I9.669505 J2.725864
G02 X174.607069 Y274.819544 Z-0.125000 I8.630698 J-2.824989
G02 X179.112102 Y276.231024 Z-0.125000 I4.325583 J-5.910884
G02 X182.597480 Y274.623721 Z-0.125000 I-0.118610 J-4.839810
G02 X183.593071 Y272.519429 Z-0.125000 I-3.038365 J-2.725188
G02 X183.577144 Y268.258860 Z-0.125000 I-13.512453 J-2.079801
G02 X182.334622 Y264.521093 Z-0.125000 I-12.148053 J1.962891
G02 X180.384999 Y262.152184 Z-0.125000 I-6.616389 J3.458591
G02 X178.972699 Y261.393179 Z-0.125000 I-2.767057 J3.455282
G02 X176.787317 Y260.995643 Z-0.125000 I-2.600220 J8.088587
G02 X174.539386 Y261.084841 Z-0.125000 I-0.621366 J12.710865
G02 X173.498370 Y261.419492 Z-0.125000 I0.384278 J2.981886
G01 X173.498370 Y261.419492 Z-0.125000
G00 Z5.000000

(End cutting path id: path3815)


(Start cutting path id: path3813)
(Change tool to Default tool)

G00 Z5.000000
G00 X178.143440 Y261.949605

G01 Z-0.125000 F100.0(Penetrate)
G03 X181.306831 Y264.465930 Z-0.125000 I-1.377469 J4.978267 F400.000000
G03 X182.888428 Y270.701365 Z-0.125000 I-11.500777 J6.235435
G03 X182.593977 Y272.739208 Z-0.125000 I-7.198990 J-0.000000
G03 X181.946176 Y273.893880 Z-0.125000 I-2.854864 J-0.842600
G03 X178.662764 Y275.259999 Z-0.125000 I-3.088947 J-2.795329
G03 X174.716368 Y273.556030 Z-0.125000 I0.284116 J-6.079932
G03 X171.838011 Y268.441787 Z-0.125000 I7.140187 J-7.385691
G03 X172.460190 Y263.604860 Z-0.125000 I6.918366 J-1.568562
G03 X174.444856 Y261.974512 Z-0.125000 I2.897592 J1.504148
G03 X178.143440 Y261.949605 Z-0.125000 I1.893150 J6.500056
G01 X178.143440 Y261.949605 Z-0.125000
G00 Z5.000000

(End cutting path id: path3813)


(Start cutting path id: path3817)
(Change tool to Default tool)

G00 Z5.000000
G00 X179.290744 Y256.944357

G01 Z-0.125000 F100.0(Penetrate)
G03 X184.721905 Y259.578627 Z-0.125000 I-4.090846 J15.350169 F400.000000
G03 X188.319030 Y263.704979 Z-0.125000 I-7.831009 J10.457701
G03 X190.327416 Y270.180112 Z-0.125000 I-14.554490 J8.063390
G03 X189.442743 Y275.423388 Z-0.125000 I-10.189301 J0.977078
G03 X186.199304 Y278.853025 Z-0.125000 I-6.667607 J-3.057123
G03 X179.970581 Y280.423463 Z-0.125000 I-6.341016 J-12.012451
G03 X175.252222 Y279.783414 Z-0.125000 I-0.138016 J-16.694158
G03 X171.246934 Y277.934551 Z-0.125000 I3.931470 J-13.779813
G03 X166.761195 Y273.108633 Z-0.125000 I7.839286 J-11.784422
G03 X164.813181 Y266.538975 Z-0.125000 I13.331154 J-7.526549
G03 X167.467694 Y259.692727 Z-0.125000 I8.743561 J-0.547582
G03 X175.179108 Y256.518026 Z-0.125000 I7.853850 J8.124221
G03 X177.560333 Y256.626107 Z-0.125000 I0.259253 J20.573625
G03 X179.290744 Y256.944357 Z-0.125000 I-1.155962 J11.148774
G01 X179.290744 Y256.944357 Z-0.125000
G00 Z5.000000

(End cutting path id: path3817)


(Footer)
M5
G00 X0.0000 Y0.0000
M2
(Using default footer. To add your own footer create file "footer" in the output dir.)
(end)
%