%
(Header)
(Generated by gcodetools from Inkscape.)
(Using default header. To add your own header create file "header" in the output dir.)
M3
(Header end.)
G21 (All units in mm)

(Start cutting path id: path3799)
(Change tool to Default tool)

G00 Z5.000000
G00 X31.574077 Y32.463827

G01 Z-0.125000 F100.0(Penetrate)
G01 X30.302378 Y40.129623 Z-0.125000 F400.000000
G01 X29.201717 Y46.350326 Z-0.125000
G01 X20.348705 Y31.371249 Z-0.125000
G01 X26.090008 Y31.116010 Z-0.125000
G01 X31.831306 Y31.116010 Z-0.125000
G01 X31.574077 Y32.463827 Z-0.125000
G01 X31.574077 Y32.463827 Z-0.125000
G00 Z5.000000

(End cutting path id: path3799)


(Start cutting path id: path3803)
(Change tool to Default tool)

G00 Z5.000000
G00 X0.865738 Y15.875287

G01 Z-0.125000 F100.0(Penetrate)
G01 X13.520525 Y35.793699 Z-0.125000 F400.000000
G01 X25.976344 Y54.779008 Z-0.125000
G01 X31.461343 Y54.663167 Z-0.125000
G01 X36.946346 Y54.547326 Z-0.125000
G01 X41.084746 Y38.166138 Z-0.125000
G01 X45.223145 Y21.784956 Z-0.125000
G01 X48.382871 Y21.665116 Z-0.125000
G01 X51.542595 Y21.545278 Z-0.125000
G01 X54.304410 Y36.698481 Z-0.125000
G01 X57.066214 Y51.851686 Z-0.125000
G01 X55.096492 Y51.851686 Z-0.125000
G01 X53.808193 Y51.909706 Z-0.125000
G01 X53.228130 Y52.340526 Z-0.125000
G01 X53.215289 Y53.529300 Z-0.125000
G01 X53.628731 Y55.861175 Z-0.125000
G01 X54.130716 Y58.487103 Z-0.125000
G01 X61.140374 Y58.487103 Z-0.125000
G01 X66.634143 Y58.375137 Z-0.125000
G01 X67.796749 Y58.215346 Z-0.125000
G01 X68.141280 Y57.968712 Z-0.125000
G01 X64.815890 Y39.513958 Z-0.125000
G01 X61.499237 Y21.577596 Z-0.125000
G01 X65.043584 Y21.577596 Z-0.125000
G01 X68.089569 Y21.718103 Z-0.125000
G01 X68.604334 Y21.998104 Z-0.125000
G01 X68.822664 Y22.510704 Z-0.125000
G01 X74.068291 Y51.414329 Z-0.125000
G01 X73.514958 Y51.723213 Z-0.125000
G01 X72.184610 Y51.851686 Z-0.125000
G01 X70.300927 Y51.851686 Z-0.125000
G01 X70.606350 Y54.218964 Z-0.125000
G01 X70.962470 Y56.858103 Z-0.125000
G01 X71.239716 Y57.623851 Z-0.125000
G01 X71.735440 Y58.106140 Z-0.125000
G01 X73.839288 Y58.477621 Z-0.125000
G01 X78.188036 Y58.487103 Z-0.125000
G01 X85.133059 Y58.176069 Z-0.125000
G01 X78.849553 Y22.925416 Z-0.125000
G01 X78.724495 Y22.149268 Z-0.125000
G01 X78.849751 Y21.748794 Z-0.125000
G01 X80.436856 Y21.577596 Z-0.125000
G01 X82.294175 Y21.577596 Z-0.125000
G01 X81.979034 Y19.400353 Z-0.125000
G01 X81.361585 Y16.186321 Z-0.125000
G01 X81.059277 Y15.149539 Z-0.125000
G01 X55.420983 Y15.042379 Z-0.125000
G01 X29.782686 Y14.935225 Z-0.125000
G01 X30.088558 Y17.305976 Z-0.125000
G01 X30.805131 Y20.932430 Z-0.125000
G01 X31.368560 Y21.469146 Z-0.125000
G01 X32.286245 Y21.577596 Z-0.125000
G01 X33.654334 Y21.577596 Z-0.125000
G01 X33.337839 Y23.547490 Z-0.125000
G01 X32.554139 Y27.535730 Z-0.125000
G01 X32.086937 Y29.554082 Z-0.125000
G01 X29.853774 Y29.358612 Z-0.125000
G01 X27.813889 Y28.978529 Z-0.125000
G01 X25.558092 Y28.203629 Z-0.125000
G01 X20.698747 Y25.658441 Z-0.125000
G01 X15.875734 Y22.101208 Z-0.125000
G01 X11.689044 Y17.910073 Z-0.125000
G01 X9.204386 Y14.942181 Z-0.125000
G01 X4.935563 Y14.942181 Z-0.125000
G01 X1.259135 Y15.065905 Z-0.125000
G01 X0.831234 Y15.343806 Z-0.125000
G01 X0.865695 Y15.875287 Z-0.125000
G01 X0.865695 Y15.875287 Z-0.125000
G00 Z5.000000

(End cutting path id: path3803)


(Start cutting path id: path3811)
(Change tool to Default tool)

G00 Z5.000000
G00 X97.056731 Y14.177545

G01 Z-0.125000 F100.0(Penetrate)
G01 X94.375741 Y14.659186 Z-0.125000 F400.000000
G01 X92.014162 Y15.414926 Z-0.125000
G01 X89.977404 Y16.439802 Z-0.125000
G01 X88.270896 Y17.728799 Z-0.125000
G01 X86.900052 Y19.276931 Z-0.125000
G01 X85.870303 Y21.079191 Z-0.125000
G01 X85.187065 Y23.130585 Z-0.125000
G01 X84.855767 Y25.426111 Z-0.125000
G01 X85.060822 Y29.674706 Z-0.125000
G01 X86.169215 Y33.590207 Z-0.125000
G01 X88.084683 Y37.084465 Z-0.125000
G01 X90.710964 Y40.069332 Z-0.125000
G01 X93.951784 Y42.456669 Z-0.125000
G01 X97.710877 Y44.158326 Z-0.125000
G01 X101.891991 Y45.086154 Z-0.125000
G01 X106.398845 Y45.152013 Z-0.125000
G01 X109.077986 Y44.768058 Z-0.125000
G01 X111.403303 Y44.097828 Z-0.125000
G01 X113.382090 Y43.134285 Z-0.125000
G01 X115.021677 Y41.870406 Z-0.125000
G01 X116.329362 Y40.299151 Z-0.125000
G01 X117.312460 Y38.413483 Z-0.125000
G01 X117.978282 Y36.206376 Z-0.125000
G01 X118.334144 Y33.670795 Z-0.125000
G01 X118.266473 Y28.954585 Z-0.125000
G01 X117.957019 Y27.451921 Z-0.125000
G01 X106.596378 Y27.451921 Z-0.125000
G01 X95.235726 Y27.451921 Z-0.125000
G01 X95.235726 Y26.476463 Z-0.125000
G01 X95.557318 Y25.254051 Z-0.125000
G01 X96.416267 Y23.952061 Z-0.125000
G01 X97.653854 Y22.759356 Z-0.125000
G01 X99.111368 Y21.864799 Z-0.125000
G01 X101.429228 Y21.244184 Z-0.125000
G01 X104.429513 Y21.074814 Z-0.125000
G01 X107.826483 Y21.351880 Z-0.125000
G01 X111.334398 Y22.070570 Z-0.125000
G01 X115.100840 Y22.764755 Z-0.125000
G01 X115.065591 Y21.639538 Z-0.125000
G01 X114.567172 Y19.463387 Z-0.125000
G01 X113.879391 Y17.249591 Z-0.125000
G01 X113.276042 Y16.011442 Z-0.125000
G01 X112.249538 Y15.486478 Z-0.125000
G01 X110.442201 Y14.998567 Z-0.125000
G01 X104.756411 Y14.191882 Z-0.125000
G01 X100.015867 Y13.827929 Z-0.125000
G01 X97.056734 Y14.177545 Z-0.125000
G01 X97.056734 Y14.177545 Z-0.125000
G00 Z5.000000

(End cutting path id: path3811)


(Start cutting path id: path3805)
(Change tool to Default tool)

G00 Z5.000000
G00 X107.301643 Y35.256602

G01 Z-0.125000 F100.0(Penetrate)
G01 X106.958009 Y36.516021 Z-0.125000 F400.000000
G01 X106.007132 Y37.814001 Z-0.125000
G01 X104.572162 Y38.892169 Z-0.125000
G01 X102.650911 Y39.133805 Z-0.125000
G01 X100.837264 Y38.931299 Z-0.125000
G01 X99.168890 Y38.342019 Z-0.125000
G01 X97.701546 Y37.393304 Z-0.125000
G01 X96.490980 Y36.112500 Z-0.125000
G01 X95.465116 Y34.372388 Z-0.125000
G01 X97.203608 Y34.122811 Z-0.125000
G01 X101.383378 Y34.019004 Z-0.125000
G01 X107.301643 Y34.019004 Z-0.125000
G01 X107.301643 Y35.256602 Z-0.125000
G01 X107.301643 Y35.256602 Z-0.125000
G00 Z5.000000

(End cutting path id: path3805)


(Start cutting path id: path3819)
(Change tool to Default tool)

G00 Z5.000000
G00 X138.130346 Y30.955058

G01 Z-0.125000 F100.0(Penetrate)
G01 X139.609189 Y32.207998 Z-0.125000 F400.000000
G01 X140.503434 Y33.527726 Z-0.125000
G01 X140.740030 Y34.189839 Z-0.125000
G01 X140.840914 Y34.841295 Z-0.125000
G01 X140.809564 Y35.472975 Z-0.125000
G01 X140.649460 Y36.075762 Z-0.125000
G01 X140.364080 Y36.640535 Z-0.125000
G01 X139.956904 Y37.158179 Z-0.125000
G01 X138.791079 Y38.015602 Z-0.125000
G01 X137.179818 Y38.575086 Z-0.125000
G01 X135.150951 Y38.763684 Z-0.125000
G01 X133.007013 Y38.573251 Z-0.125000
G01 X131.216309 Y38.045006 Z-0.125000
G01 X129.775192 Y37.177368 Z-0.125000
G01 X128.680013 Y35.968759 Z-0.125000
G01 X128.198433 Y35.117987 Z-0.125000
G01 X127.900095 Y34.287640 Z-0.125000
G01 X127.782829 Y33.488308 Z-0.125000
G01 X127.844463 Y32.730583 Z-0.125000
G01 X128.082826 Y32.025055 Z-0.125000
G01 X128.495745 Y31.382315 Z-0.125000
G01 X129.081050 Y30.812955 Z-0.125000
G01 X129.836568 Y30.327565 Z-0.125000
G01 X130.557072 Y30.090771 Z-0.125000
G01 X131.547753 Y29.957649 Z-0.125000
G01 X133.979989 Y29.975207 Z-0.125000
G01 X136.413959 Y30.325818 Z-0.125000
G01 X137.406808 Y30.609011 Z-0.125000
G01 X138.130346 Y30.955058 Z-0.125000
G01 X138.130346 Y30.955058 Z-0.125000
G00 Z5.000000

(End cutting path id: path3819)


(Start cutting path id: path3823)
(Change tool to Default tool)

G00 Z5.000000
G00 X135.701434 Y8.242525

G01 Z-0.125000 F100.0(Penetrate)
G01 X136.950308 Y8.863726 Z-0.125000 F400.000000
G01 X137.899401 Y9.582915 Z-0.125000
G01 X138.502641 Y10.355809 Z-0.125000
G01 X138.713959 Y11.138125 Z-0.125000
G01 X138.647651 Y11.364070 Z-0.125000
G01 X138.424166 Y11.564200 Z-0.125000
G01 X137.358295 Y11.919433 Z-0.125000
G01 X135.221608 Y12.268659 Z-0.125000
G01 X131.719366 Y12.676716 Z-0.125000
G01 X128.039390 Y12.977034 Z-0.125000
G01 X126.716251 Y12.975765 Z-0.125000
G01 X125.661367 Y12.859091 Z-0.125000
G01 X124.817506 Y12.616176 Z-0.125000
G01 X124.127436 Y12.236181 Z-0.125000
G01 X123.533922 Y11.708267 Z-0.125000
G01 X122.979734 Y11.021595 Z-0.125000
G01 X122.648758 Y10.424366 Z-0.125000
G01 X122.543017 Y9.865819 Z-0.125000
G01 X122.662712 Y9.345750 Z-0.125000
G01 X123.008045 Y8.863954 Z-0.125000
G01 X123.579219 Y8.420227 Z-0.125000
G01 X124.376436 Y8.014366 Z-0.125000
G01 X126.649805 Y7.315425 Z-0.125000
G01 X128.544302 Y7.174030 Z-0.125000
G01 X131.106403 Y7.324643 Z-0.125000
G01 X133.703111 Y7.702422 Z-0.125000
G01 X135.701434 Y8.242525 Z-0.125000
G01 X135.701434 Y8.242525 Z-0.125000
G00 Z5.000000

(End cutting path id: path3823)


(Start cutting path id: path3829)
(Change tool to Default tool)

G00 Z5.000000
G00 X121.414425 Y0.895575

G01 Z-0.125000 F100.0(Penetrate)
G01 X117.852227 Y1.805798 Z-0.125000 F400.000000
G01 X115.124502 Y3.294549 Z-0.125000
G01 X113.379290 Y5.247921 Z-0.125000
G01 X112.921399 Y6.363235 Z-0.125000
G01 X112.764653 Y7.551984 Z-0.125000
G01 X113.057867 Y9.678161 Z-0.125000
G01 X113.944895 Y11.514525 Z-0.125000
G01 X115.436837 Y13.076963 Z-0.125000
G01 X117.544794 Y14.381310 Z-0.125000
G01 X119.046524 Y15.277744 Z-0.125000
G01 X118.953284 Y15.652555 Z-0.125000
G01 X118.414564 Y16.227320 Z-0.125000
G01 X117.743713 Y17.403055 Z-0.125000
G01 X117.535410 Y18.921106 Z-0.125000
G01 X117.785773 Y20.495869 Z-0.125000
G01 X118.490919 Y21.841747 Z-0.125000
G01 X119.705965 Y22.907847 Z-0.125000
G01 X121.298621 Y23.849947 Z-0.125000
G01 X123.160198 Y24.703749 Z-0.125000
G01 X121.565772 Y25.655856 Z-0.125000
G01 X120.026081 Y26.939273 Z-0.125000
G01 X118.961474 Y28.645767 Z-0.125000
G01 X118.390445 Y30.732484 Z-0.125000
G01 X118.331460 Y33.156570 Z-0.125000
G01 X118.910945 Y36.024884 Z-0.125000
G01 X120.133901 Y38.592553 Z-0.125000
G01 X121.937552 Y40.819315 Z-0.125000
G01 X124.259126 Y42.664918 Z-0.125000
G01 X127.035857 Y44.089105 Z-0.125000
G01 X130.204967 Y45.051610 Z-0.125000
G01 X133.703693 Y45.512179 Z-0.125000
G01 X137.469254 Y45.430552 Z-0.125000
G01 X154.647746 Y44.856907 Z-0.125000
G01 X168.532901 Y44.594201 Z-0.125000
G01 X168.384294 Y43.351667 Z-0.125000
G01 X168.235685 Y42.109135 Z-0.125000
G01 X169.294794 Y42.992124 Z-0.125000
G01 X170.733967 Y43.989074 Z-0.125000
G01 X172.367635 Y44.739794 Z-0.125000
G01 X174.204086 Y45.247280 Z-0.125000
G01 X176.251594 Y45.514536 Z-0.125000
G01 X178.524559 Y45.522269 Z-0.125000
G01 X179.790873 Y45.148920 Z-0.125000
G01 X180.208003 Y44.770316 Z-0.125000
G01 X180.338186 Y44.233453 Z-0.125000
G01 X179.713338 Y41.555240 Z-0.125000
G01 X178.848609 Y38.516291 Z-0.125000
G01 X180.671474 Y40.210305 Z-0.125000
G01 X182.580075 Y41.745707 Z-0.125000
G01 X184.722187 Y43.039379 Z-0.125000
G01 X187.058276 Y44.081330 Z-0.125000
G01 X189.548797 Y44.861553 Z-0.125000
G01 X192.154193 Y45.370050 Z-0.125000
G01 X194.834937 Y45.596818 Z-0.125000
G01 X197.551470 Y45.531859 Z-0.125000
G01 X200.264249 Y45.165170 Z-0.125000
G01 X203.064602 Y44.399643 Z-0.125000
G01 X205.435695 Y43.274355 Z-0.125000
G01 X207.369854 Y41.801313 Z-0.125000
G01 X208.859372 Y39.992522 Z-0.125000
G01 X209.896545 Y37.859992 Z-0.125000
G01 X210.473692 Y35.415725 Z-0.125000
G01 X210.583104 Y32.671726 Z-0.125000
G01 X210.217087 Y29.640002 Z-0.125000
G01 X209.126834 Y25.994523 Z-0.125000
G01 X207.368229 Y22.770236 Z-0.125000
G01 X205.005930 Y20.008070 Z-0.125000
G01 X202.104578 Y17.748955 Z-0.125000
G01 X198.728814 Y16.033823 Z-0.125000
G01 X194.943282 Y14.903593 Z-0.125000
G01 X190.812630 Y14.399203 Z-0.125000
G01 X186.401505 Y14.561593 Z-0.125000
G01 X184.052533 Y14.946669 Z-0.125000
G01 X181.952066 Y15.545059 Z-0.125000
G01 X180.101571 Y16.355621 Z-0.125000
G01 X178.502520 Y17.377226 Z-0.125000
G01 X177.156385 Y18.608756 Z-0.125000
G01 X176.064634 Y20.049077 Z-0.125000
G01 X175.228736 Y21.697074 Z-0.125000
G01 X174.650170 Y23.551613 Z-0.125000
G01 X174.380010 Y26.118365 Z-0.125000
G01 X174.617675 Y28.987684 Z-0.125000
G01 X175.325197 Y31.926402 Z-0.125000
G01 X176.464624 Y34.701333 Z-0.125000
G01 X177.773102 Y37.249873 Z-0.125000
G01 X176.539492 Y37.474629 Z-0.125000
G01 X173.984898 Y37.439142 Z-0.125000
G01 X171.369638 Y36.579561 Z-0.125000
G01 X169.070859 Y35.077171 Z-0.125000
G01 X167.465737 Y33.113260 Z-0.125000
G01 X166.545300 Y30.417735 Z-0.125000
G01 X165.666156 Y26.450481 Z-0.125000
G01 X164.816416 Y21.577593 Z-0.125000
G01 X166.831192 Y21.577593 Z-0.125000
G01 X168.845968 Y21.577593 Z-0.125000
G01 X168.529357 Y19.480552 Z-0.125000
G01 X167.885184 Y16.266520 Z-0.125000
G01 X167.557620 Y15.149539 Z-0.125000
G01 X159.043636 Y15.036672 Z-0.125000
G01 X152.280643 Y15.058657 Z-0.125000
G01 X150.833755 Y15.202546 Z-0.125000
G01 X150.332788 Y15.451401 Z-0.125000
G01 X150.686407 Y18.674615 Z-0.125000
G01 X151.236878 Y21.370250 Z-0.125000
G01 X153.043036 Y21.577607 Z-0.125000
G01 X154.849190 Y21.784964 Z-0.125000
G01 X156.313478 Y29.664521 Z-0.125000
G01 X157.806140 Y38.062472 Z-0.125000
G01 X157.581773 Y38.304427 Z-0.125000
G01 X156.819195 Y38.464738 Z-0.125000
G01 X153.330403 Y38.580864 Z-0.125000
G01 X148.826300 Y38.580864 Z-0.125000
G01 X149.286201 Y36.930324 Z-0.125000
G01 X149.559649 Y34.937522 Z-0.125000
G01 X149.317889 Y32.923412 Z-0.125000
G01 X148.607231 Y30.950585 Z-0.125000
G01 X147.473978 Y29.081619 Z-0.125000
G01 X145.964442 Y27.379094 Z-0.125000
G01 X144.124935 Y25.905600 Z-0.125000
G01 X142.001760 Y24.723707 Z-0.125000
G01 X139.641228 Y23.896009 Z-0.125000
G01 X136.864362 Y23.430204 Z-0.125000
G01 X133.811567 Y23.236461 Z-0.125000
G01 X131.079774 Y23.071291 Z-0.125000
G01 X129.137140 Y22.640797 Z-0.125000
G01 X128.251772 Y22.042523 Z-0.125000
G01 X128.289356 Y21.710943 Z-0.125000
G01 X128.691793 Y21.373998 Z-0.125000
G01 X135.179120 Y20.500684 Z-0.125000
G01 X141.765108 Y19.641656 Z-0.125000
G01 X144.001257 Y19.130712 Z-0.125000
G01 X145.651986 Y18.505643 Z-0.125000
G01 X146.806633 Y17.721565 Z-0.125000
G01 X147.554556 Y16.733604 Z-0.125000
G01 X147.985097 Y15.496869 Z-0.125000
G01 X148.187608 Y13.966500 Z-0.125000
G01 X148.074601 Y11.636417 Z-0.125000
G01 X147.423054 Y9.442901 Z-0.125000
G01 X146.265054 Y7.415614 Z-0.125000
G01 X144.632670 Y5.584387 Z-0.125000
G01 X142.557978 Y3.978853 Z-0.125000
G01 X140.073053 Y2.628843 Z-0.125000
G01 X137.209974 Y1.564046 Z-0.125000
G01 X134.000814 Y0.814182 Z-0.125000
G01 X127.975508 Y0.488526 Z-0.125000
G01 X121.414425 Y0.895603 Z-0.125000
G01 X121.414425 Y0.895603 Z-0.125000
G00 Z5.000000

(End cutting path id: path3829)


(Start cutting path id: path3813)
(Change tool to Default tool)

G00 Z5.000000
G00 X193.413068 Y22.002842

G01 Z-0.125000 F100.0(Penetrate)
G01 X194.736453 Y22.510501 Z-0.125000 F400.000000
G01 X195.944658 Y23.316590 Z-0.125000
G01 X197.940008 Y25.696629 Z-0.125000
G01 X199.248018 Y28.888125 Z-0.125000
G01 X199.717593 Y32.636239 Z-0.125000
G01 X199.499038 Y35.014605 Z-0.125000
G01 X198.465653 Y36.515144 Z-0.125000
G01 X197.496626 Y37.289138 Z-0.125000
G01 X196.384690 Y37.824051 Z-0.125000
G01 X193.885494 Y38.183198 Z-0.125000
G01 X191.274873 Y37.605696 Z-0.125000
G01 X188.859618 Y36.104657 Z-0.125000
G01 X187.775256 Y34.922505 Z-0.125000
G01 X186.852273 Y33.479418 Z-0.125000
G01 X185.573203 Y30.144200 Z-0.125000
G01 X185.187910 Y26.766539 Z-0.125000
G01 X185.382149 Y25.270403 Z-0.125000
G01 X185.861899 Y24.013981 Z-0.125000
G01 X187.061930 Y22.697456 Z-0.125000
G01 X188.802290 Y21.901635 Z-0.125000
G01 X190.960243 Y21.659203 Z-0.125000
G01 X193.413068 Y22.002842 Z-0.125000
G01 X193.413068 Y22.002842 Z-0.125000
G00 Z5.000000

(End cutting path id: path3813)


(Footer)
M5
G00 X0.0000 Y0.0000
M2
(Using default footer. To add your own footer create file "footer" in the output dir.)
(end)
%