%
(Header)
(Generated by gcodetools from Inkscape.)
(Using default header. To add your own header create file "header" in the output dir.)
M3
(Header end.)
G21 (All units in mm)

(Start cutting path id: path3029)
(Change tool to Default tool)

G00 Z5.000000
G00 X52.614675 Y105.229354

G01 Z-0.125000 F100.0(Penetrate)
G01 X60.265886 Y71.086335 Z-0.125000 F400.000000
G01 X89.818868 Y89.818872 Z-0.125000
G01 X71.086331 Y60.265890 Z-0.125000
G01 X105.229347 Y52.614679 Z-0.125000
G01 X71.086331 Y44.963468 Z-0.125000
G01 X89.818865 Y15.410486 Z-0.125000
G01 X60.265883 Y34.143023 Z-0.125000
G01 X52.614672 Y0.000007 Z-0.125000
G01 X44.963461 Y34.143023 Z-0.125000
G01 X15.410479 Y15.410489 Z-0.125000
G01 X34.143016 Y44.963471 Z-0.125000
G01 X0.000000 Y52.614682 Z-0.125000
G01 X34.143016 Y60.265893 Z-0.125000
G01 X15.410482 Y89.818875 Z-0.125000
G01 X44.963464 Y71.086338 Z-0.125000
G01 X52.614675 Y105.229354 Z-0.125000
G00 Z5.000000

(End cutting path id: path3029)


(Footer)
M5
G00 X0.0000 Y0.0000
M2
(Using default footer. To add your own footer create file "footer" in the output dir.)
(end)
%