%
(Header)
(Generated by gcodetools from Inkscape.)
(Using default header. To add your own header create file "header" in the output dir.)
M3
(Header end.)
G21 (All units in mm)

(Start cutting path id: path3029)
(Change tool to Default tool)

G00 Z5.000000
G00 X52.614675 Y60.506883

G01 Z-0.125000 F100.0(Penetrate)
G01 X55.918380 Y105.125531 Z-0.125000 F400.000000
G01 X53.603830 Y60.444650 Z-0.125000
G01 X62.473685 Y104.297403 Z-0.125000
G01 X54.577384 Y60.258933 Z-0.125000
G01 X68.873506 Y102.654208 Z-0.125000
G01 X55.519986 Y59.952663 Z-0.125000
G01 X75.016916 Y100.221859 Z-0.125000
G01 X56.416770 Y59.530667 Z-0.125000
G01 X80.807030 Y97.038718 Z-0.125000
G01 X57.253593 Y58.999604 Z-0.125000
G01 X86.152533 Y93.154982 Z-0.125000
G01 X58.017258 Y58.367847 Z-0.125000
G01 X90.969124 Y88.631899 Z-0.125000
G01 X58.695720 Y57.645358 Z-0.125000
G01 X95.180842 Y83.540808 Z-0.125000
G01 X59.278280 Y56.843534 Z-0.125000
G01 X98.721266 Y77.961988 Z-0.125000
G01 X59.755752 Y55.975015 Z-0.125000
G01 X101.534562 Y71.983430 Z-0.125000
G01 X60.120604 Y55.053505 Z-0.125000
G01 X103.576363 Y65.699413 Z-0.125000
G01 X60.367083 Y54.093532 Z-0.125000
G01 X104.814467 Y59.209044 Z-0.125000
G01 X60.491303 Y53.110236 Z-0.125000
G01 X105.229347 Y52.614676 Z-0.125000
G01 X60.491303 Y52.119125 Z-0.125000
G01 X104.814464 Y46.020309 Z-0.125000
G01 X60.367083 Y51.135829 Z-0.125000
G01 X103.576360 Y39.529940 Z-0.125000
G01 X60.120604 Y50.175856 Z-0.125000
G01 X101.534559 Y33.245923 Z-0.125000
G01 X59.755750 Y49.254344 Z-0.125000
G01 X98.721263 Y27.267364 Z-0.125000
G01 X59.278280 Y48.385828 Z-0.125000
G01 X95.180836 Y21.688548 Z-0.125000
G01 X58.695720 Y47.584000 Z-0.125000
G01 X90.969118 Y16.597454 Z-0.125000
G01 X58.017258 Y46.861511 Z-0.125000
G01 X86.152528 Y12.074374 Z-0.125000
G01 X57.253593 Y46.229754 Z-0.125000
G01 X80.807021 Y8.190641 Z-0.125000
G01 X56.416770 Y45.698691 Z-0.125000
G01 X75.016908 Y5.007498 Z-0.125000
G01 X55.519986 Y45.276695 Z-0.125000
G01 X68.873497 Y2.575149 Z-0.125000
G01 X54.577384 Y44.970428 Z-0.125000
G01 X62.473677 Y0.931956 Z-0.125000
G01 X53.603830 Y44.784711 Z-0.125000
G01 X55.918374 Y0.103828 Z-0.125000
G01 X52.614672 Y44.722479 Z-0.125000
G01 X49.310968 Y0.103828 Z-0.125000
G01 X51.625517 Y44.784711 Z-0.125000
G01 X42.755662 Y0.931958 Z-0.125000
G01 X50.651963 Y44.970428 Z-0.125000
G01 X36.355841 Y2.575152 Z-0.125000
G01 X49.709361 Y45.276698 Z-0.125000
G01 X30.212431 Y5.007501 Z-0.125000
G01 X48.812577 Y45.698691 Z-0.125000
G01 X24.422317 Y8.190643 Z-0.125000
G01 X47.975755 Y46.229754 Z-0.125000
G01 X19.076814 Y12.074380 Z-0.125000
G01 X47.212089 Y46.861514 Z-0.125000
G01 X14.260223 Y16.597459 Z-0.125000
G01 X46.533627 Y47.584000 Z-0.125000
G01 X10.048505 Y21.688553 Z-0.125000
G01 X45.951067 Y48.385828 Z-0.125000
G01 X6.508081 Y27.267370 Z-0.125000
G01 X45.473598 Y49.254344 Z-0.125000
G01 X3.694786 Y33.245929 Z-0.125000
G01 X45.108744 Y50.175856 Z-0.125000
G01 X1.652984 Y39.529945 Z-0.125000
G01 X44.862265 Y51.135829 Z-0.125000
G01 X0.414881 Y46.020317 Z-0.125000
G01 X44.738045 Y52.119125 Z-0.125000
G01 X0.000000 Y52.614685 Z-0.125000
G01 X44.738045 Y53.110236 Z-0.125000
G01 X0.414884 Y59.209050 Z-0.125000
G01 X44.862265 Y54.093532 Z-0.125000
G01 X1.652987 Y65.699422 Z-0.125000
G01 X45.108744 Y55.053505 Z-0.125000
G01 X3.694788 Y71.983438 Z-0.125000
G01 X45.473598 Y55.975017 Z-0.125000
G01 X6.508084 Y77.961997 Z-0.125000
G01 X45.951067 Y56.843534 Z-0.125000
G01 X10.048511 Y83.540813 Z-0.125000
G01 X46.533627 Y57.645358 Z-0.125000
G01 X14.260229 Y88.631905 Z-0.125000
G01 X47.212089 Y58.367847 Z-0.125000
G01 X19.076823 Y93.154984 Z-0.125000
G01 X47.975755 Y58.999604 Z-0.125000
G01 X24.422326 Y97.038721 Z-0.125000
G01 X48.812577 Y59.530670 Z-0.125000
G01 X30.212439 Y100.221862 Z-0.125000
G01 X49.709361 Y59.952663 Z-0.125000
G01 X36.355850 Y102.654210 Z-0.125000
G01 X50.651963 Y60.258933 Z-0.125000
G01 X42.755671 Y104.297405 Z-0.125000
G01 X51.625520 Y60.444650 Z-0.125000
G01 X49.310976 Y105.125532 Z-0.125000
G01 X52.614675 Y60.506883 Z-0.125000
G00 Z5.000000

(End cutting path id: path3029)


(Footer)
M5
G00 X0.0000 Y0.0000
M2
(Using default footer. To add your own footer create file "footer" in the output dir.)
(end)
%